Examples/DCRDemo/DCRDemo/Resources/LUTs/amber.cube
#Generated by Presets Store
#https://presetsstore.com
TITLE "Amber CCD"
LUT_3D_SIZE 25
0.050980 0.031373 0.047059
0.074510 0.039216 0.050980
0.090196 0.043137 0.043137
0.129412 0.047059 0.027451
0.188235 0.043137 0.011765
0.250980 0.043137 0.011765
0.305882 0.039216 0.003922
0.352941 0.039216 0.003922
0.411765 0.031373 0.003922
0.450980 0.031373 0.000000
0.478431 0.035294 0.003922
0.509804 0.035294 0.003922
0.549020 0.035294 0.003922
0.592157 0.050980 0.007843
0.635294 0.054902 0.007843
0.674510 0.062745 0.003922
0.709804 0.082353 0.000000
0.733333 0.098039 0.000000
0.764706 0.125490 0.003922
0.780392 0.137255 0.000000
0.807843 0.156863 0.000000
0.823529 0.188235 0.003922
0.831373 0.215686 0.007843
0.811765 0.219608 0.000000
0.772549 0.207843 0.000000
0.047059 0.054902 0.043137
0.066667 0.062745 0.047059
0.101961 0.062745 0.058824
0.133333 0.066667 0.035294
0.211765 0.070588 0.023529
0.258824 0.066667 0.011765
0.317647 0.070588 0.000000
0.372549 0.062745 0.000000
0.419608 0.070588 0.000000
0.470588 0.070588 0.011765
0.509804 0.074510 0.007843
0.556863 0.074510 0.003922
0.588235 0.074510 0.003922
0.623529 0.086275 0.011765
0.670588 0.098039 0.000000
0.701961 0.117647 0.000000
0.721569 0.121569 0.000000
0.752941 0.137255 0.000000
0.780392 0.160784 0.007843
0.792157 0.176471 0.000000
0.815686 0.203922 0.003922
0.819608 0.227451 0.003922
0.819608 0.250980 0.003922
0.819608 0.247059 0.011765
0.772549 0.247059 0.007843
0.058824 0.066667 0.054902
0.074510 0.078431 0.058824
0.101961 0.086275 0.050980
0.149020 0.086275 0.035294
0.196078 0.094118 0.027451
0.262745 0.098039 0.011765
0.321569 0.101961 0.003922
0.384314 0.101961 0.003922
0.435294 0.105882 0.000000
0.486275 0.113725 0.000000
0.521569 0.113725 0.007843
0.564706 0.121569 0.003922
0.611765 0.121569 0.003922
0.654902 0.129412 0.000000
0.682353 0.149020 0.000000
0.721569 0.164706 0.007843
0.741176 0.172549 0.000000
0.756863 0.184314 0.000000
0.776471 0.203922 0.003922
0.792157 0.223529 0.007843
0.800000 0.243137 0.000000
0.827451 0.270588 0.011765
0.831373 0.290196 0.003922
0.811765 0.294118 0.003922
0.776471 0.278431 0.015686
0.047059 0.109804 0.066667
0.078431 0.101961 0.062745
0.094118 0.117647 0.062745
0.137255 0.133333 0.054902
0.207843 0.129412 0.031373
0.262745 0.141176 0.019608
0.325490 0.145098 0.003922
0.388235 0.156863 0.000000
0.439216 0.156863 0.000000
0.486275 0.160784 0.003922
0.529412 0.172549 0.000000
0.576471 0.172549 0.003922
0.619608 0.184314 0.003922
0.650980 0.196078 0.003922
0.686275 0.211765 0.003922
0.717647 0.227451 0.000000
0.737255 0.243137 0.003922
0.752941 0.250980 0.003922
0.768627 0.270588 0.007843
0.784314 0.282353 0.003922
0.807843 0.298039 0.003922
0.811765 0.321569 0.007843
0.831373 0.337255 0.003922
0.811765 0.341176 0.003922
0.768627 0.317647 0.000000
0.047059 0.137255 0.066667
0.066667 0.149020 0.082353
0.090196 0.168627 0.070588
0.121569 0.172549 0.054902
0.196078 0.188235 0.027451
0.247059 0.196078 0.023529
0.309804 0.188235 0.003922
0.364706 0.200000 0.003922
0.423529 0.215686 0.011765
0.466667 0.219608 0.007843
0.513725 0.239216 0.003922
0.556863 0.243137 0.003922
0.603922 0.262745 0.000000
0.639216 0.266667 0.000000
0.682353 0.282353 0.000000
0.705882 0.290196 0.000000
0.725490 0.305882 0.000000
0.749020 0.313725 0.003922
0.768627 0.329412 0.007843
0.780392 0.341176 0.011765
0.796078 0.349020 0.000000
0.811765 0.368627 0.000000
0.823529 0.392157 0.007843
0.807843 0.388235 0.003922
0.760784 0.372549 0.003922
0.027451 0.180392 0.066667
0.050980 0.188235 0.070588
0.070588 0.203922 0.074510
0.109804 0.211765 0.058824
0.172549 0.235294 0.050980
0.231373 0.243137 0.027451
0.286275 0.239216 0.003922
0.349020 0.247059 0.007843
0.396078 0.254902 0.011765
0.462745 0.274510 0.015686
0.501961 0.290196 0.007843
0.552941 0.301961 0.019608
0.596078 0.309804 0.007843
0.627451 0.317647 0.007843
0.670588 0.329412 0.015686
0.698039 0.345098 0.007843
0.733333 0.356863 0.015686
0.745098 0.372549 0.011765
0.760784 0.372549 0.003922
0.780392 0.388235 0.003922
0.796078 0.396078 0.003922
0.807843 0.411765 0.000000
0.815686 0.431373 0.011765
0.807843 0.435294 0.011765
0.764706 0.415686 0.015686
0.035294 0.219608 0.086275
0.043137 0.231373 0.082353
0.058824 0.247059 0.090196
0.078431 0.258824 0.066667
0.137255 0.274510 0.047059
0.196078 0.301961 0.039216
0.270588 0.301961 0.015686
0.321569 0.305882 0.019608
0.384314 0.309804 0.011765
0.443137 0.309804 0.019608
0.494118 0.321569 0.027451
0.537255 0.345098 0.035294
0.580392 0.360784 0.027451
0.615686 0.376471 0.019608
0.650980 0.380392 0.007843
0.682353 0.392157 0.011765
0.717647 0.411765 0.019608
0.741176 0.423529 0.011765
0.760784 0.439216 0.015686
0.784314 0.450980 0.023529
0.796078 0.450980 0.019608
0.811765 0.454902 0.007843
0.839216 0.470588 0.023529
0.811765 0.470588 0.015686
0.760784 0.466667 0.015686
0.027451 0.254902 0.094118
0.027451 0.266667 0.094118
0.035294 0.282353 0.074510
0.074510 0.298039 0.082353
0.109804 0.329412 0.050980
0.160784 0.345098 0.039216
0.254902 0.349020 0.019608
0.333333 0.356863 0.019608
0.392157 0.360784 0.027451
0.458824 0.360784 0.031373
0.490196 0.360784 0.043137
0.541176 0.384314 0.043137
0.584314 0.400000 0.047059
0.619608 0.411765 0.043137
0.662745 0.431373 0.039216
0.686275 0.435294 0.043137
0.717647 0.447059 0.039216
0.741176 0.458824 0.035294
0.764706 0.466667 0.027451
0.792157 0.478431 0.027451
0.815686 0.486275 0.031373
0.823529 0.498039 0.035294
0.835294 0.498039 0.023529
0.815686 0.505882 0.039216
0.776471 0.494118 0.023529
0.027451 0.301961 0.098039
0.031373 0.305882 0.094118
0.011765 0.317647 0.082353
0.050980 0.345098 0.082353
0.101961 0.368627 0.066667
0.149020 0.384314 0.047059
0.239216 0.400000 0.031373
0.309804 0.407843 0.007843
0.388235 0.407843 0.007843
0.450980 0.411765 0.027451
0.498039 0.419608 0.047059
0.537255 0.415686 0.058824
0.576471 0.435294 0.066667
0.627451 0.447059 0.062745
0.670588 0.462745 0.062745
0.698039 0.470588 0.050980
0.725490 0.482353 0.054902
0.752941 0.486275 0.050980
0.772549 0.498039 0.050980
0.784314 0.513725 0.047059
0.807843 0.525490 0.054902
0.823529 0.533333 0.050980
0.831373 0.541176 0.050980
0.811765 0.537255 0.050980
0.764706 0.525490 0.066667
0.011765 0.349020 0.094118
0.019608 0.356863 0.109804
0.015686 0.368627 0.086275
0.027451 0.384314 0.074510
0.086275 0.415686 0.078431
0.141176 0.431373 0.058824
0.223529 0.439216 0.031373
0.298039 0.447059 0.011765
0.380392 0.450980 0.011765
0.454902 0.454902 0.015686
0.505882 0.466667 0.031373
0.549020 0.466667 0.047059
0.580392 0.474510 0.070588
0.619608 0.482353 0.074510
0.662745 0.498039 0.074510
0.701961 0.505882 0.070588
0.725490 0.517647 0.070588
0.752941 0.521569 0.066667
0.776471 0.533333 0.066667
0.800000 0.549020 0.066667
0.823529 0.556863 0.074510
0.835294 0.560784 0.074510
0.843137 0.572549 0.066667
0.823529 0.568627 0.066667
0.772549 0.556863 0.062745
0.007843 0.380392 0.113725
0.007843 0.384314 0.101961
0.015686 0.403922 0.090196
0.031373 0.415686 0.082353
0.074510 0.439216 0.082353
0.133333 0.454902 0.054902
0.211765 0.474510 0.031373
0.286275 0.486275 0.019608
0.364706 0.486275 0.015686
0.439216 0.494118 0.011765
0.494118 0.494118 0.023529
0.545098 0.494118 0.043137
0.592157 0.509804 0.058824
0.615686 0.513725 0.070588
0.666667 0.525490 0.078431
0.705882 0.541176 0.078431
0.745098 0.545098 0.094118
0.760784 0.556863 0.094118
0.776471 0.564706 0.078431
0.800000 0.572549 0.082353
0.823529 0.588235 0.078431
0.839216 0.584314 0.082353
0.854902 0.603922 0.086275
0.843137 0.600000 0.078431
0.780392 0.580392 0.082353
0.015686 0.419608 0.109804
0.003922 0.427451 0.094118
0.003922 0.431373 0.074510
0.015686 0.447059 0.098039
0.062745 0.474510 0.070588
0.129412 0.494118 0.074510
0.211765 0.505882 0.039216
0.270588 0.513725 0.023529
0.352941 0.521569 0.007843
0.439216 0.529412 0.019608
0.494118 0.529412 0.023529
0.549020 0.537255 0.023529
0.596078 0.545098 0.035294
0.627451 0.549020 0.058824
0.658824 0.560784 0.094118
0.705882 0.572549 0.086275
0.737255 0.580392 0.101961
0.768627 0.576471 0.101961
0.788235 0.588235 0.098039
0.807843 0.600000 0.098039
0.831373 0.607843 0.094118
0.843137 0.607843 0.090196
0.866667 0.623529 0.101961
0.850980 0.623529 0.090196
0.792157 0.607843 0.090196
0.015686 0.450980 0.090196
0.000000 0.458824 0.101961
0.011765 0.462745 0.090196
0.019608 0.474510 0.086275
0.074510 0.494118 0.086275
0.133333 0.517647 0.082353
0.192157 0.537255 0.058824
0.274510 0.549020 0.031373
0.349020 0.560784 0.019608
0.431373 0.560784 0.015686
0.490196 0.560784 0.019608
0.556863 0.572549 0.027451
0.603922 0.580392 0.039216
0.635294 0.588235 0.047059
0.666667 0.596078 0.062745
0.709804 0.603922 0.082353
0.741176 0.603922 0.094118
0.768627 0.611765 0.098039
0.800000 0.615686 0.105882
0.815686 0.619608 0.105882
0.831373 0.623529 0.105882
0.850980 0.639216 0.113725
0.858824 0.647059 0.117647
0.850980 0.647059 0.113725
0.784314 0.639216 0.090196
0.003922 0.482353 0.086275
0.003922 0.494118 0.101961
0.011765 0.501961 0.101961
0.015686 0.509804 0.090196
0.082353 0.525490 0.101961
0.129412 0.552941 0.082353
0.207843 0.572549 0.062745
0.270588 0.576471 0.035294
0.341176 0.584314 0.015686
0.423529 0.588235 0.015686
0.486275 0.596078 0.019608
0.545098 0.592157 0.019608
0.592157 0.607843 0.023529
0.647059 0.623529 0.035294
0.682353 0.639216 0.050980
0.709804 0.639216 0.066667
0.741176 0.643137 0.086275
0.772549 0.643137 0.098039
0.796078 0.650980 0.101961
0.819608 0.650980 0.105882
0.847059 0.654902 0.117647
0.862745 0.662745 0.109804
0.886275 0.666667 0.129412
0.866667 0.662745 0.121569
0.803922 0.658824 0.105882
0.011765 0.529412 0.098039
0.015686 0.533333 0.101961
0.027451 0.541176 0.094118
0.039216 0.552941 0.113725
0.101961 0.564706 0.094118
0.152941 0.580392 0.082353
0.231373 0.600000 0.058824
0.286275 0.607843 0.035294
0.364706 0.611765 0.027451
0.443137 0.619608 0.027451
0.494118 0.623529 0.023529
0.549020 0.631373 0.031373
0.607843 0.635294 0.027451
0.647059 0.650980 0.039216
0.698039 0.662745 0.047059
0.733333 0.678431 0.058824
0.756863 0.674510 0.066667
0.780392 0.674510 0.090196
0.803922 0.678431 0.101961
0.823529 0.686275 0.121569
0.850980 0.686275 0.121569
0.874510 0.694118 0.125490
0.882353 0.694118 0.121569
0.870588 0.690196 0.113725
0.815686 0.678431 0.113725
0.011765 0.556863 0.098039
0.023529 0.560784 0.105882
0.043137 0.572549 0.101961
0.070588 0.592157 0.101961
0.129412 0.603922 0.090196
0.184314 0.607843 0.066667
0.262745 0.623529 0.054902
0.325490 0.623529 0.043137
0.396078 0.635294 0.027451
0.458824 0.647059 0.015686
0.505882 0.647059 0.011765
0.556863 0.650980 0.023529
0.603922 0.662745 0.031373
0.643137 0.666667 0.039216
0.694118 0.678431 0.047059
0.733333 0.698039 0.058824
0.768627 0.709804 0.062745
0.792157 0.717647 0.074510
0.807843 0.713725 0.094118
0.827451 0.713725 0.101961
0.850980 0.709804 0.129412
0.878431 0.721569 0.133333
0.882353 0.721569 0.133333
0.874510 0.713725 0.125490
0.811765 0.721569 0.113725
0.031373 0.576471 0.109804
0.054902 0.607843 0.098039
0.090196 0.611765 0.109804
0.129412 0.623529 0.094118
0.192157 0.627451 0.074510
0.235294 0.639216 0.078431
0.309804 0.639216 0.050980
0.352941 0.654902 0.043137
0.415686 0.658824 0.027451
0.482353 0.666667 0.023529
0.521569 0.670588 0.023529
0.556863 0.678431 0.027451
0.603922 0.686275 0.031373
0.658824 0.694118 0.039216
0.705882 0.701961 0.043137
0.745098 0.709804 0.054902
0.772549 0.721569 0.066667
0.803922 0.733333 0.066667
0.827451 0.745098 0.082353
0.835294 0.737255 0.098039
0.854902 0.737255 0.117647
0.878431 0.737255 0.125490
0.894118 0.741176 0.125490
0.874510 0.737255 0.133333
0.827451 0.729412 0.121569
0.070588 0.615686 0.117647
0.105882 0.631373 0.101961
0.129412 0.639216 0.105882
0.180392 0.654902 0.101961
0.247059 0.662745 0.082353
0.282353 0.658824 0.062745
0.345098 0.662745 0.047059
0.403922 0.670588 0.031373
0.443137 0.682353 0.031373
0.501961 0.686275 0.027451
0.537255 0.690196 0.035294
0.580392 0.698039 0.019608
0.619608 0.705882 0.035294
0.654902 0.721569 0.039216
0.709804 0.725490 0.050980
0.737255 0.729412 0.058824
0.772549 0.745098 0.054902
0.803922 0.760784 0.062745
0.827451 0.760784 0.070588
0.850980 0.764706 0.082353
0.874510 0.764706 0.101961
0.886275 0.764706 0.113725
0.905882 0.756863 0.133333
0.898039 0.749020 0.117647
0.831373 0.752941 0.129412
0.129412 0.662745 0.105882
0.160784 0.666667 0.098039
0.188235 0.666667 0.105882
0.227451 0.666667 0.090196
0.274510 0.678431 0.074510
0.329412 0.682353 0.062745
0.380392 0.678431 0.047059
0.423529 0.694118 0.035294
0.478431 0.705882 0.039216
0.525490 0.709804 0.027451
0.560784 0.709804 0.023529
0.596078 0.713725 0.031373
0.611765 0.725490 0.035294
0.662745 0.737255 0.043137
0.705882 0.749020 0.050980
0.741176 0.752941 0.058824
0.772549 0.760784 0.066667
0.811765 0.768627 0.070588
0.835294 0.776471 0.074510
0.850980 0.788235 0.078431
0.874510 0.784314 0.086275
0.890196 0.788235 0.117647
0.905882 0.776471 0.121569
0.894118 0.772549 0.113725
0.839216 0.772549 0.113725
0.231373 0.686275 0.094118
0.235294 0.690196 0.090196
0.262745 0.694118 0.078431
0.298039 0.694118 0.082353
0.329412 0.701961 0.066667
0.364706 0.705882 0.058824
0.423529 0.713725 0.043137
0.458824 0.717647 0.043137
0.498039 0.721569 0.035294
0.541176 0.725490 0.035294
0.564706 0.737255 0.027451
0.607843 0.737255 0.035294
0.643137 0.737255 0.047059
0.674510 0.749020 0.050980
0.713725 0.756863 0.050980
0.741176 0.760784 0.054902
0.772549 0.768627 0.066667
0.811765 0.776471 0.074510
0.839216 0.792157 0.078431
0.862745 0.800000 0.082353
0.882353 0.803922 0.086275
0.894118 0.807843 0.098039
0.905882 0.807843 0.109804
0.898039 0.796078 0.125490
0.847059 0.784314 0.113725
0.313725 0.717647 0.070588
0.329412 0.713725 0.074510
0.333333 0.713725 0.066667
0.360784 0.717647 0.066667
0.400000 0.721569 0.054902
0.439216 0.729412 0.050980
0.478431 0.729412 0.043137
0.509804 0.733333 0.047059
0.533333 0.741176 0.035294
0.572549 0.745098 0.027451
0.592157 0.749020 0.027451
0.619608 0.752941 0.039216
0.654902 0.756863 0.039216
0.694118 0.772549 0.047059
0.729412 0.776471 0.054902
0.745098 0.788235 0.050980
0.788235 0.788235 0.066667
0.807843 0.792157 0.066667
0.843137 0.807843 0.066667
0.862745 0.807843 0.082353
0.890196 0.819608 0.090196
0.901961 0.815686 0.101961
0.909804 0.823529 0.109804
0.905882 0.815686 0.117647
0.862745 0.796078 0.098039
0.392157 0.737255 0.054902
0.415686 0.725490 0.054902
0.415686 0.741176 0.050980
0.439216 0.733333 0.035294
0.474510 0.745098 0.050980
0.490196 0.737255 0.050980
0.525490 0.752941 0.035294
0.556863 0.752941 0.027451
0.580392 0.760784 0.031373
0.600000 0.764706 0.039216
0.615686 0.764706 0.043137
0.650980 0.768627 0.039216
0.674510 0.776471 0.043137
0.705882 0.784314 0.054902
0.733333 0.792157 0.050980
0.756863 0.800000 0.047059
0.780392 0.807843 0.058824
0.807843 0.811765 0.066667
0.839216 0.819608 0.074510
0.866667 0.823529 0.078431
0.898039 0.827451 0.090196
0.913725 0.827451 0.105882
0.921569 0.835294 0.113725
0.921569 0.827451 0.105882
0.866667 0.819608 0.105882
0.482353 0.752941 0.058824
0.486275 0.760784 0.039216
0.490196 0.756863 0.039216
0.517647 0.756863 0.039216
0.521569 0.764706 0.039216
0.549020 0.760784 0.039216
0.568627 0.772549 0.035294
0.596078 0.772549 0.039216
0.611765 0.776471 0.047059
0.639216 0.780392 0.043137
0.643137 0.776471 0.050980
0.666667 0.780392 0.039216
0.698039 0.784314 0.050980
0.721569 0.796078 0.050980
0.745098 0.803922 0.054902
0.772549 0.807843 0.058824
0.807843 0.819608 0.070588
0.827451 0.823529 0.082353
0.847059 0.827451 0.090196
0.874510 0.831373 0.094118
0.898039 0.839216 0.098039
0.913725 0.847059 0.094118
0.929412 0.843137 0.121569
0.929412 0.847059 0.137255
0.878431 0.835294 0.137255
0.513725 0.752941 0.050980
0.501961 0.749020 0.047059
0.513725 0.752941 0.050980
0.525490 0.760784 0.039216
0.545098 0.764706 0.039216
0.552941 0.764706 0.043137
0.584314 0.756863 0.031373
0.603922 0.768627 0.039216
0.623529 0.772549 0.050980
0.643137 0.780392 0.043137
0.654902 0.780392 0.039216
0.678431 0.780392 0.047059
0.690196 0.788235 0.050980
0.725490 0.788235 0.062745
0.756863 0.800000 0.062745
0.780392 0.807843 0.058824
0.803922 0.815686 0.066667
0.831373 0.819608 0.070588
0.854902 0.823529 0.082353
0.882353 0.827451 0.094118
0.905882 0.827451 0.109804
0.913725 0.843137 0.113725
0.929412 0.850980 0.133333
0.917647 0.843137 0.145098
0.878431 0.831373 0.156863
0.466667 0.725490 0.066667
0.462745 0.725490 0.066667
0.466667 0.725490 0.050980
0.498039 0.729412 0.062745
0.505882 0.733333 0.054902
0.529412 0.737255 0.039216
0.552941 0.741176 0.035294
0.580392 0.752941 0.043137
0.611765 0.749020 0.050980
0.635294 0.749020 0.050980
0.643137 0.756863 0.050980
0.674510 0.756863 0.054902
0.690196 0.768627 0.043137
0.717647 0.772549 0.050980
0.745098 0.776471 0.054902
0.780392 0.784314 0.070588
0.800000 0.792157 0.082353
0.819608 0.796078 0.082353
0.847059 0.800000 0.086275
0.862745 0.807843 0.082353
0.886275 0.811765 0.105882
0.901961 0.815686 0.133333
0.909804 0.823529 0.152941
0.909804 0.819608 0.168627
0.870588 0.811765 0.164706
0.058824 0.039216 0.066667
0.078431 0.043137 0.062745
0.109804 0.047059 0.058824
0.156863 0.047059 0.043137
0.211765 0.039216 0.027451
0.270588 0.047059 0.019608
0.309804 0.043137 0.007843
0.356863 0.043137 0.007843
0.415686 0.035294 0.000000
0.458824 0.035294 0.000000
0.490196 0.039216 0.011765
0.521569 0.031373 0.007843
0.560784 0.035294 0.000000
0.607843 0.050980 0.003922
0.654902 0.050980 0.003922
0.690196 0.062745 0.007843
0.717647 0.090196 0.003922
0.741176 0.105882 0.007843
0.764706 0.117647 0.007843
0.788235 0.145098 0.000000
0.803922 0.164706 0.003922
0.819608 0.192157 0.000000
0.831373 0.215686 0.000000
0.831373 0.231373 0.000000
0.792157 0.215686 0.011765
0.058824 0.050980 0.054902
0.070588 0.066667 0.058824
0.105882 0.058824 0.058824
0.149020 0.066667 0.047059
0.207843 0.062745 0.027451
0.270588 0.066667 0.015686
0.345098 0.062745 0.007843
0.384314 0.062745 0.015686
0.431373 0.070588 0.011765
0.482353 0.078431 0.003922
0.529412 0.078431 0.003922
0.568627 0.078431 0.000000
0.596078 0.082353 0.003922
0.635294 0.090196 0.007843
0.682353 0.101961 0.000000
0.701961 0.113725 0.007843
0.729412 0.129412 0.007843
0.749020 0.145098 0.003922
0.772549 0.160784 0.000000
0.788235 0.180392 0.000000
0.803922 0.200000 0.003922
0.815686 0.235294 0.000000
0.827451 0.266667 0.007843
0.831373 0.262745 0.000000
0.796078 0.254902 0.000000
0.062745 0.070588 0.066667
0.078431 0.086275 0.066667
0.121569 0.090196 0.078431
0.141176 0.090196 0.066667
0.215686 0.090196 0.039216
0.278431 0.101961 0.027451
0.341176 0.105882 0.003922
0.396078 0.105882 0.007843
0.439216 0.109804 0.007843
0.490196 0.117647 0.000000
0.533333 0.121569 0.003922
0.580392 0.133333 0.000000
0.623529 0.133333 0.007843
0.662745 0.141176 0.011765
0.682353 0.149020 0.000000
0.713725 0.168627 0.007843
0.741176 0.184314 0.003922
0.756863 0.192157 0.000000
0.776471 0.211765 0.003922
0.788235 0.227451 0.000000
0.807843 0.250980 0.000000
0.819608 0.274510 0.003922
0.835294 0.301961 0.011765
0.819608 0.305882 0.000000
0.803922 0.290196 0.007843
0.062745 0.113725 0.086275
0.086275 0.105882 0.082353
0.101961 0.125490 0.078431
0.145098 0.133333 0.066667
0.207843 0.145098 0.054902
0.270588 0.149020 0.027451
0.333333 0.152941 0.011765
0.384314 0.156863 0.000000
0.443137 0.160784 0.003922
0.494118 0.168627 0.011765
0.541176 0.176471 0.007843
0.576471 0.180392 0.000000
0.611765 0.196078 0.000000
0.658824 0.203922 0.003922
0.686275 0.211765 0.003922
0.717647 0.227451 0.000000
0.737255 0.243137 0.003922
0.760784 0.258824 0.003922
0.760784 0.274510 0.000000
0.776471 0.294118 0.000000
0.800000 0.301961 0.000000
0.803922 0.321569 0.007843
0.831373 0.345098 0.007843
0.823529 0.352941 0.015686
0.807843 0.341176 0.011765
0.043137 0.137255 0.074510
0.070588 0.160784 0.082353
0.094118 0.168627 0.082353
0.137255 0.188235 0.078431
0.188235 0.196078 0.050980
0.250980 0.200000 0.035294
0.329412 0.196078 0.019608
0.388235 0.207843 0.011765
0.431373 0.227451 0.003922
0.478431 0.235294 0.003922
0.521569 0.247059 0.003922
0.572549 0.243137 0.000000
0.619608 0.258824 0.011765
0.650980 0.270588 0.003922
0.686275 0.286275 0.003922
0.705882 0.301961 0.007843
0.729412 0.313725 0.007843
0.752941 0.325490 0.003922
0.772549 0.333333 0.003922
0.788235 0.341176 0.003922
0.788235 0.352941 0.000000
0.815686 0.372549 0.003922
0.823529 0.392157 0.007843
0.823529 0.400000 0.011765
0.792157 0.392157 0.000000
0.043137 0.184314 0.082353
0.054902 0.188235 0.082353
0.074510 0.211765 0.086275
0.109804 0.231373 0.070588
0.172549 0.243137 0.054902
0.239216 0.250980 0.027451
0.305882 0.250980 0.011765
0.364706 0.250980 0.015686
0.423529 0.266667 0.023529
0.470588 0.278431 0.015686
0.513725 0.290196 0.011765
0.552941 0.301961 0.011765
0.600000 0.313725 0.003922
0.635294 0.329412 0.007843
0.670588 0.337255 0.011765
0.698039 0.352941 0.003922
0.721569 0.364706 0.007843
0.749020 0.376471 0.015686
0.772549 0.384314 0.015686
0.784314 0.392157 0.015686
0.800000 0.411765 0.011765
0.815686 0.419608 0.011765
0.831373 0.435294 0.011765
0.823529 0.439216 0.011765
0.803922 0.427451 0.023529
0.027451 0.223529 0.086275
0.039216 0.243137 0.094118
0.054902 0.254902 0.086275
0.094118 0.278431 0.098039
0.149020 0.290196 0.050980
0.203922 0.309804 0.047059
0.286275 0.313725 0.011765
0.345098 0.309804 0.015686
0.392157 0.317647 0.015686
0.454902 0.329412 0.027451
0.498039 0.337255 0.027451
0.549020 0.349020 0.023529
0.592157 0.368627 0.027451
0.627451 0.380392 0.015686
0.666667 0.396078 0.023529
0.690196 0.400000 0.019608
0.709804 0.415686 0.019608
0.741176 0.431373 0.027451
0.760784 0.443137 0.019608
0.784314 0.454902 0.015686
0.800000 0.458824 0.007843
0.819608 0.462745 0.011765
0.831373 0.474510 0.023529
0.827451 0.490196 0.023529
0.788235 0.470588 0.011765
0.023529 0.270588 0.101961
0.027451 0.286275 0.105882
0.031373 0.301961 0.090196
0.058824 0.333333 0.090196
0.121569 0.341176 0.062745
0.184314 0.360784 0.043137
0.258824 0.360784 0.011765
0.333333 0.368627 0.019608
0.396078 0.372549 0.027451
0.458824 0.380392 0.031373
0.494118 0.376471 0.039216
0.537255 0.392157 0.043137
0.580392 0.403922 0.039216
0.627451 0.419608 0.043137
0.674510 0.431373 0.035294
0.690196 0.435294 0.035294
0.721569 0.454902 0.035294
0.745098 0.470588 0.035294
0.760784 0.482353 0.035294
0.784314 0.490196 0.039216
0.811765 0.498039 0.047059
0.815686 0.498039 0.039216
0.835294 0.509804 0.031373
0.843137 0.517647 0.054902
0.803922 0.513725 0.039216
0.015686 0.305882 0.105882
0.023529 0.333333 0.109804
0.027451 0.341176 0.109804
0.058824 0.356863 0.101961
0.105882 0.384314 0.070588
0.156863 0.392157 0.039216
0.235294 0.407843 0.023529
0.313725 0.419608 0.007843
0.396078 0.423529 0.015686
0.462745 0.427451 0.031373
0.505882 0.427451 0.047059
0.556863 0.427451 0.054902
0.592157 0.443137 0.062745
0.631373 0.450980 0.066667
0.670588 0.470588 0.058824
0.694118 0.482353 0.054902
0.721569 0.498039 0.054902
0.752941 0.505882 0.062745
0.768627 0.513725 0.058824
0.796078 0.525490 0.058824
0.815686 0.533333 0.062745
0.827451 0.537255 0.054902
0.835294 0.549020 0.043137
0.839216 0.552941 0.047059
0.811765 0.537255 0.058824
0.027451 0.364706 0.117647
0.019608 0.368627 0.117647
0.027451 0.380392 0.105882
0.035294 0.407843 0.090196
0.094118 0.423529 0.078431
0.149020 0.439216 0.058824
0.223529 0.447059 0.027451
0.305882 0.462745 0.015686
0.384314 0.466667 0.007843
0.454902 0.466667 0.015686
0.505882 0.478431 0.023529
0.564706 0.486275 0.047059
0.592157 0.478431 0.070588
0.627451 0.494118 0.074510
0.670588 0.505882 0.074510
0.701961 0.513725 0.078431
0.733333 0.525490 0.078431
0.756863 0.533333 0.078431
0.780392 0.545098 0.074510
0.796078 0.552941 0.070588
0.831373 0.564706 0.066667
0.843137 0.572549 0.074510
0.854902 0.576471 0.074510
0.850980 0.580392 0.074510
0.815686 0.576471 0.078431
0.011765 0.392157 0.121569
0.015686 0.396078 0.117647
0.011765 0.407843 0.101961
0.031373 0.423529 0.086275
0.090196 0.458824 0.090196
0.152941 0.470588 0.058824
0.235294 0.482353 0.031373
0.305882 0.494118 0.023529
0.380392 0.498039 0.019608
0.450980 0.509804 0.019608
