Examples/DCRDemo/DCRDemo/Resources/LUTs/amber.cube
#Generated by Presets Store
#https://presetsstore.com
TITLE "Amber CCD"
LUT_3D_SIZE 9
0.050980 0.031373 0.047059
0.129412 0.047059 0.027451
0.305882 0.039216 0.003922
0.450980 0.031373 0.000000
0.549020 0.035294 0.003922
0.674510 0.062745 0.003922
0.764706 0.125490 0.003922
0.823529 0.188235 0.003922
0.772549 0.207843 0.000000
0.047059 0.109804 0.066667
0.137255 0.133333 0.054902
0.325490 0.145098 0.003922
0.486275 0.160784 0.003922
0.619608 0.184314 0.003922
0.717647 0.227451 0.000000
0.768627 0.270588 0.007843
0.811765 0.321569 0.007843
0.768627 0.317647 0.000000
0.035294 0.219608 0.086275
0.078431 0.258824 0.066667
0.270588 0.301961 0.015686
0.443137 0.309804 0.019608
0.580392 0.360784 0.027451
0.682353 0.392157 0.011765
0.760784 0.439216 0.015686
0.811765 0.454902 0.007843
0.760784 0.466667 0.015686
0.011765 0.349020 0.094118
0.027451 0.384314 0.074510
0.223529 0.439216 0.031373
0.454902 0.454902 0.015686
0.580392 0.474510 0.070588
0.701961 0.505882 0.070588
0.776471 0.533333 0.066667
0.835294 0.560784 0.074510
0.772549 0.556863 0.062745
0.015686 0.450980 0.090196
0.019608 0.474510 0.086275
0.192157 0.537255 0.058824
0.431373 0.560784 0.015686
0.603922 0.580392 0.039216
0.709804 0.603922 0.082353
0.800000 0.615686 0.105882
0.850980 0.639216 0.113725
0.784314 0.639216 0.090196
0.011765 0.556863 0.098039
0.070588 0.592157 0.101961
0.262745 0.623529 0.054902
0.458824 0.647059 0.015686
0.603922 0.662745 0.031373
0.733333 0.698039 0.058824
0.807843 0.713725 0.094118
0.878431 0.721569 0.133333
0.811765 0.721569 0.113725
0.129412 0.662745 0.105882
0.227451 0.666667 0.090196
0.380392 0.678431 0.047059
0.525490 0.709804 0.027451
0.611765 0.725490 0.035294
0.741176 0.752941 0.058824
0.835294 0.776471 0.074510
0.890196 0.788235 0.117647
0.839216 0.772549 0.113725
0.392157 0.737255 0.054902
0.439216 0.733333 0.035294
0.525490 0.752941 0.035294
0.600000 0.764706 0.039216
0.674510 0.776471 0.043137
0.756863 0.800000 0.047059
0.839216 0.819608 0.074510
0.913725 0.827451 0.105882
0.866667 0.819608 0.105882
0.466667 0.725490 0.066667
0.498039 0.729412 0.062745
0.552941 0.741176 0.035294
0.635294 0.749020 0.050980
0.690196 0.768627 0.043137
0.780392 0.784314 0.070588
0.847059 0.800000 0.086275
0.901961 0.815686 0.133333
0.870588 0.811765 0.164706
0.098039 0.047059 0.125490
0.156863 0.047059 0.133333
0.352941 0.043137 0.054902
0.490196 0.047059 0.031373
0.580392 0.039216 0.000000
0.694118 0.082353 0.000000
0.776471 0.129412 0.003922
0.819608 0.192157 0.003922
0.835294 0.247059 0.000000
0.101961 0.117647 0.121569
0.160784 0.141176 0.125490
0.368627 0.156863 0.054902
0.521569 0.172549 0.000000
0.639216 0.200000 0.003922
0.721569 0.231373 0.003922
0.772549 0.286275 0.003922
0.807843 0.333333 0.007843
0.815686 0.368627 0.000000
0.062745 0.254902 0.129412
0.105882 0.305882 0.145098
0.325490 0.337255 0.066667
0.486275 0.337255 0.043137
0.603922 0.372549 0.019608
0.698039 0.415686 0.015686
0.764706 0.447059 0.023529
0.815686 0.474510 0.019608
0.839216 0.490196 0.027451
0.047059 0.396078 0.137255
0.043137 0.423529 0.152941
0.247059 0.478431 0.062745
0.470588 0.486275 0.015686
0.596078 0.501961 0.070588
0.705882 0.529412 0.078431
0.780392 0.560784 0.086275
0.831373 0.580392 0.086275
0.854902 0.592157 0.078431
0.039216 0.498039 0.141176
0.039216 0.513725 0.141176
0.254902 0.568627 0.047059
0.494118 0.584314 0.023529
0.623529 0.603922 0.039216
0.721569 0.631373 0.074510
0.792157 0.635294 0.117647
0.854902 0.662745 0.125490
0.886275 0.666667 0.129412
0.050980 0.592157 0.117647
0.125490 0.615686 0.105882
0.325490 0.643137 0.039216
0.498039 0.654902 0.023529
0.647059 0.678431 0.039216
0.745098 0.709804 0.054902
0.819608 0.729412 0.078431
0.878431 0.721569 0.133333
0.901961 0.733333 0.129412
0.235294 0.686275 0.086275
0.294118 0.686275 0.066667
0.423529 0.701961 0.043137
0.556863 0.713725 0.031373
0.643137 0.733333 0.035294
0.752941 0.756863 0.054902
0.839216 0.780392 0.070588
0.894118 0.788235 0.101961
0.909804 0.792157 0.109804
0.450980 0.737255 0.050980
0.474510 0.745098 0.043137
0.537255 0.756863 0.031373
0.627451 0.768627 0.039216
0.694118 0.780392 0.047059
0.780392 0.803922 0.066667
0.850980 0.815686 0.066667
0.913725 0.831373 0.090196
0.933333 0.835294 0.125490
0.505882 0.737255 0.078431
0.501961 0.745098 0.082353
0.580392 0.752941 0.066667
0.654902 0.768627 0.070588
0.709804 0.780392 0.074510
0.792157 0.788235 0.086275
0.858824 0.800000 0.090196
0.913725 0.823529 0.141176
0.929412 0.827451 0.203922
0.235294 0.047059 0.282353
0.180392 0.054902 0.341176
0.360784 0.043137 0.262745
0.529412 0.039216 0.172549
0.650980 0.054902 0.137255
0.733333 0.086275 0.109804
0.792157 0.133333 0.082353
0.843137 0.200000 0.094118
0.858824 0.274510 0.109804
0.247059 0.149020 0.305882
0.176471 0.152941 0.333333
0.352941 0.152941 0.274510
0.545098 0.168627 0.184314
0.674510 0.200000 0.156863
0.752941 0.227451 0.121569
0.796078 0.274510 0.098039
0.839216 0.329412 0.101961
0.858824 0.384314 0.113725
0.180392 0.305882 0.262745
0.141176 0.301961 0.325490
0.317647 0.325490 0.270588
0.509804 0.345098 0.180392
0.627451 0.380392 0.109804
0.721569 0.415686 0.121569
0.780392 0.447059 0.094118
0.827451 0.478431 0.086275
0.874510 0.498039 0.105882
0.172549 0.439216 0.254902
0.058824 0.450980 0.301961
0.294118 0.482353 0.239216
0.505882 0.501961 0.176471
0.627451 0.505882 0.149020
0.721569 0.533333 0.133333
0.796078 0.560784 0.121569
0.843137 0.580392 0.129412
0.874510 0.596078 0.149020
0.172549 0.560784 0.239216
0.070588 0.549020 0.254902
0.294118 0.588235 0.223529
0.490196 0.603922 0.141176
0.623529 0.623529 0.113725
0.725490 0.627451 0.129412
0.796078 0.635294 0.141176
0.854902 0.654902 0.152941
0.882353 0.662745 0.180392
0.231373 0.647059 0.215686
0.192157 0.650980 0.243137
0.360784 0.658824 0.164706
0.537255 0.682353 0.137255
0.662745 0.698039 0.105882
0.756863 0.717647 0.094118
0.819608 0.721569 0.117647
0.874510 0.725490 0.164706
0.898039 0.733333 0.207843
0.388235 0.713725 0.188235
0.345098 0.713725 0.180392
0.466667 0.717647 0.145098
0.584314 0.733333 0.101961
0.674510 0.745098 0.101961
0.764706 0.760784 0.101961
0.843137 0.788235 0.133333
0.894118 0.792157 0.168627
0.905882 0.780392 0.243137
0.545098 0.772549 0.137255
0.505882 0.760784 0.149020
0.572549 0.772549 0.125490
0.643137 0.780392 0.137255
0.705882 0.792157 0.113725
0.780392 0.811765 0.133333
0.847059 0.819608 0.156863
0.909804 0.839216 0.211765
0.933333 0.831373 0.286275
0.564706 0.768627 0.203922
0.541176 0.752941 0.211765
0.600000 0.764706 0.200000
0.670588 0.768627 0.203922
0.721569 0.784314 0.196078
0.788235 0.796078 0.223529
0.850980 0.807843 0.250980
0.898039 0.819608 0.290196
0.917647 0.819608 0.356863
0.129412 0.070588 0.466667
0.203922 0.078431 0.458824
0.376471 0.082353 0.415686
0.537255 0.082353 0.368627
0.654902 0.105882 0.345098
0.729412 0.137255 0.298039
0.796078 0.180392 0.286275
0.843137 0.254902 0.301961
0.819608 0.286275 0.294118
0.113725 0.129412 0.478431
0.211765 0.149020 0.494118
0.372549 0.164706 0.447059
0.533333 0.176471 0.400000
0.658824 0.207843 0.376471
0.745098 0.239216 0.349020
0.796078 0.294118 0.345098
0.831373 0.341176 0.325490
0.831373 0.368627 0.352941
0.082353 0.254902 0.501961
0.176471 0.301961 0.501961
0.341176 0.325490 0.470588
0.517647 0.333333 0.411765
0.631373 0.380392 0.380392
0.721569 0.407843 0.364706
0.780392 0.439216 0.360784
0.831373 0.482353 0.356863
0.835294 0.490196 0.349020
0.007843 0.400000 0.490196
0.133333 0.447059 0.490196
0.313725 0.474510 0.458824
0.494118 0.490196 0.419608
0.627451 0.505882 0.384314
0.709804 0.537255 0.345098
0.788235 0.560784 0.364706
0.839216 0.576471 0.360784
0.835294 0.592157 0.392157
0.019608 0.529412 0.498039
0.125490 0.537255 0.478431
0.321569 0.572549 0.439216
0.490196 0.584314 0.396078
0.643137 0.603922 0.396078
0.725490 0.615686 0.368627
0.800000 0.635294 0.352941
0.862745 0.654902 0.388235
0.862745 0.662745 0.415686
0.082353 0.619608 0.454902
0.211765 0.639216 0.423529
0.360784 0.654902 0.384314
0.525490 0.670588 0.368627
0.658824 0.690196 0.364706
0.749020 0.709804 0.360784
0.807843 0.701961 0.384314
0.862745 0.721569 0.392157
0.866667 0.721569 0.443137
0.290196 0.698039 0.396078
0.360784 0.701961 0.384314
0.462745 0.713725 0.337255
0.584314 0.725490 0.333333
0.674510 0.745098 0.345098
0.764706 0.756863 0.352941
0.827451 0.772549 0.360784
0.870588 0.772549 0.411765
0.882353 0.768627 0.454902
0.498039 0.756863 0.325490
0.517647 0.764706 0.317647
0.580392 0.772549 0.313725
0.654902 0.780392 0.345098
0.709804 0.792157 0.325490
0.784314 0.800000 0.356863
0.843137 0.811765 0.376471
0.894118 0.831373 0.447059
0.882353 0.819608 0.474510
0.580392 0.784314 0.349020
0.596078 0.788235 0.337255
0.635294 0.792157 0.352941
0.682353 0.796078 0.372549
0.733333 0.807843 0.388235
0.796078 0.819608 0.396078
0.858824 0.827451 0.431373
0.898039 0.839216 0.482353
0.898039 0.835294 0.529412
0.227451 0.117647 0.560784
0.247059 0.129412 0.576471
0.392157 0.121569 0.537255
0.549020 0.141176 0.521569
0.654902 0.156863 0.498039
0.737255 0.196078 0.498039
0.792157 0.243137 0.490196
0.819608 0.294118 0.490196
0.850980 0.345098 0.498039
0.231373 0.207843 0.600000
0.235294 0.203922 0.592157
0.388235 0.219608 0.568627
0.545098 0.235294 0.545098
0.647059 0.274510 0.541176
0.729412 0.309804 0.529412
0.780392 0.337255 0.517647
0.811765 0.376471 0.501961
0.847059 0.423529 0.517647
0.172549 0.345098 0.623529
0.200000 0.352941 0.623529
0.368627 0.376471 0.600000
0.513725 0.400000 0.572549
0.631373 0.411765 0.556863
0.721569 0.443137 0.560784
0.780392 0.478431 0.556863
0.831373 0.494118 0.545098
0.854902 0.533333 0.549020
0.121569 0.478431 0.650980
0.188235 0.498039 0.650980
0.356863 0.501961 0.615686
0.513725 0.525490 0.600000
0.627451 0.549020 0.584314
0.717647 0.576471 0.584314
0.784314 0.584314 0.580392
0.831373 0.607843 0.580392
0.862745 0.619608 0.576471
0.152941 0.600000 0.643137
0.196078 0.596078 0.650980
0.392157 0.607843 0.635294
0.533333 0.619608 0.607843
0.639216 0.639216 0.600000
0.717647 0.654902 0.603922
0.792157 0.670588 0.600000
0.847059 0.686275 0.600000
0.870588 0.698039 0.592157
0.290196 0.670588 0.643137
0.309804 0.666667 0.639216
0.435294 0.674510 0.611765
0.552941 0.690196 0.611765
0.650980 0.705882 0.607843
0.741176 0.717647 0.615686
0.800000 0.721569 0.615686
0.854902 0.733333 0.611765
0.886275 0.749020 0.631373
0.415686 0.725490 0.611765
0.435294 0.729412 0.611765
0.517647 0.733333 0.607843
0.592157 0.741176 0.588235
0.686275 0.749020 0.603922
0.756863 0.768627 0.600000
0.815686 0.772549 0.596078
0.862745 0.772549 0.600000
0.898039 0.780392 0.631373
0.545098 0.776471 0.564706
0.541176 0.776471 0.564706
0.596078 0.780392 0.564706
0.662745 0.792157 0.584314
0.733333 0.800000 0.588235
0.772549 0.807843 0.600000
0.839216 0.815686 0.619608
0.882353 0.815686 0.635294
0.901961 0.819608 0.650980
0.603922 0.796078 0.576471
0.607843 0.800000 0.584314
0.647059 0.800000 0.584314
0.690196 0.803922 0.592157
0.741176 0.815686 0.600000
0.788235 0.823529 0.607843
0.843137 0.831373 0.631373
0.886275 0.839216 0.650980
0.909804 0.835294 0.666667
0.172549 0.160784 0.611765
0.254902 0.168627 0.603922
0.380392 0.180392 0.584314
0.521569 0.192157 0.576471
0.619608 0.211765 0.552941
0.717647 0.243137 0.552941
0.780392 0.298039 0.552941
0.823529 0.349020 0.556863
0.788235 0.360784 0.576471
0.164706 0.211765 0.643137
0.254902 0.223529 0.619608
0.376471 0.231373 0.603922
0.501961 0.243137 0.584314
0.627451 0.262745 0.576471
0.709804 0.305882 0.584314
0.772549 0.349020 0.576471
0.827451 0.396078 0.588235
0.784314 0.407843 0.588235
0.149020 0.329412 0.674510
0.235294 0.341176 0.650980
0.356863 0.349020 0.635294
0.490196 0.372549 0.615686
0.603922 0.388235 0.611765
0.705882 0.435294 0.611765
0.764706 0.458824 0.611765
0.823529 0.498039 0.607843
0.784314 0.494118 0.623529
0.090196 0.443137 0.686275
0.207843 0.470588 0.678431
0.356863 0.478431 0.662745
0.486275 0.494118 0.647059
0.611765 0.521569 0.635294
0.709804 0.537255 0.635294
0.768627 0.568627 0.635294
0.835294 0.584314 0.639216
0.803922 0.580392 0.647059
0.082353 0.541176 0.709804
0.227451 0.560784 0.705882
0.360784 0.572549 0.682353
0.509804 0.580392 0.658824
0.607843 0.596078 0.662745
0.709804 0.619608 0.658824
0.788235 0.647059 0.662745
0.839216 0.666667 0.662745
0.807843 0.666667 0.666667
0.203922 0.647059 0.717647
0.305882 0.650980 0.705882
0.415686 0.654902 0.674510
0.529412 0.666667 0.682353
0.631373 0.678431 0.678431
0.717647 0.698039 0.674510
0.792157 0.721569 0.674510
0.847059 0.729412 0.686275
0.823529 0.717647 0.682353
0.372549 0.709804 0.698039
0.415686 0.721569 0.670588
0.501961 0.729412 0.682353
0.580392 0.729412 0.670588
0.654902 0.745098 0.674510
0.737255 0.752941 0.694118
0.803922 0.760784 0.682353
0.862745 0.784314 0.690196
0.823529 0.772549 0.698039
0.525490 0.780392 0.662745
0.552941 0.772549 0.674510
0.596078 0.776471 0.666667
0.643137 0.788235 0.666667
0.682353 0.796078 0.674510
0.768627 0.811765 0.686275
0.827451 0.815686 0.694118
0.878431 0.819608 0.705882
0.854902 0.815686 0.709804
0.619608 0.800000 0.654902
0.623529 0.803922 0.650980
0.650980 0.811765 0.654902
0.694118 0.811765 0.678431
0.725490 0.823529 0.670588
0.772549 0.831373 0.678431
0.835294 0.835294 0.694118
0.882353 0.843137 0.705882
0.858824 0.839216 0.713725
0.215686 0.231373 0.650980
0.286275 0.243137 0.650980
0.411765 0.247059 0.631373
0.537255 0.278431 0.631373
0.650980 0.309804 0.627451
0.713725 0.349020 0.627451
0.776471 0.376471 0.631373
0.819608 0.423529 0.643137
0.843137 0.458824 0.650980
0.207843 0.286275 0.674510
0.290196 0.290196 0.674510
0.407843 0.313725 0.658824
0.537255 0.333333 0.654902
0.639216 0.356863 0.654902
0.721569 0.388235 0.643137
0.772549 0.423529 0.650980
0.823529 0.462745 0.654902
0.835294 0.494118 0.670588
0.188235 0.411765 0.721569
0.274510 0.419608 0.698039
0.400000 0.427451 0.701961
0.525490 0.447059 0.678431
0.631373 0.474510 0.682353
0.701961 0.490196 0.682353
0.776471 0.521569 0.686275
0.827451 0.552941 0.694118
0.858824 0.564706 0.686275
0.192157 0.513725 0.733333
0.270588 0.533333 0.741176
0.411765 0.545098 0.733333
0.545098 0.556863 0.725490
0.643137 0.572549 0.721569
0.725490 0.592157 0.721569
0.784314 0.607843 0.721569
0.839216 0.635294 0.725490
0.854902 0.643137 0.733333
0.235294 0.600000 0.760784
0.309804 0.615686 0.756863
0.447059 0.615686 0.749020
0.556863 0.639216 0.745098
0.650980 0.650980 0.752941
0.729412 0.670588 0.752941
0.788235 0.682353 0.749020
0.843137 0.701961 0.749020
0.870588 0.713725 0.756863
0.345098 0.674510 0.776471
0.400000 0.682353 0.768627
0.494118 0.694118 0.768627
0.600000 0.705882 0.780392
0.670588 0.717647 0.764706
0.741176 0.737255 0.768627
0.800000 0.733333 0.764706
0.850980 0.745098 0.764706
0.894118 0.756863 0.772549
0.478431 0.741176 0.772549
0.494118 0.729412 0.772549
0.568627 0.745098 0.764706
0.623529 0.756863 0.764706
0.698039 0.756863 0.776471
0.760784 0.776471 0.780392
0.811765 0.780392 0.772549
0.854902 0.796078 0.768627
0.878431 0.803922 0.780392
0.588235 0.788235 0.768627
0.588235 0.792157 0.776471
0.631373 0.792157 0.760784
0.682353 0.796078 0.776471
0.729412 0.811765 0.784314
0.776471 0.819608 0.788235
0.823529 0.823529 0.784314
0.866667 0.835294 0.792157
0.890196 0.835294 0.800000
0.682353 0.815686 0.760784
0.682353 0.815686 0.760784
0.701961 0.831373 0.764706
0.717647 0.827451 0.772549
0.745098 0.835294 0.772549
0.796078 0.839216 0.776471
0.843137 0.847059 0.784314
0.882353 0.850980 0.800000
0.898039 0.850980 0.796078
0.341176 0.345098 0.705882
0.317647 0.345098 0.701961
0.431373 0.352941 0.686275
0.537255 0.376471 0.682353
0.627451 0.403922 0.682353
0.701961 0.431373 0.686275
0.768627 0.462745 0.690196
0.811765 0.505882 0.709804
0.850980 0.529412 0.717647
0.345098 0.392157 0.721569
0.313725 0.376471 0.717647
0.423529 0.392157 0.694118
0.552941 0.411765 0.694118
0.627451 0.447059 0.701961
0.705882 0.466667 0.701961
0.764706 0.486275 0.705882
0.815686 0.529412 0.709804
0.847059 0.560784 0.729412
0.337255 0.494118 0.737255
0.325490 0.498039 0.752941
0.439216 0.501961 0.737255
0.537255 0.517647 0.729412
0.631373 0.537255 0.733333
0.709804 0.556863 0.733333
0.772549 0.572549 0.741176
0.823529 0.596078 0.752941
0.854902 0.623529 0.749020
0.376471 0.580392 0.776471
0.356863 0.580392 0.788235
0.458824 0.584314 0.768627
0.556863 0.603922 0.768627
0.662745 0.619608 0.776471
0.717647 0.631373 0.772549
0.776471 0.643137 0.772549
0.823529 0.662745 0.780392
0.866667 0.674510 0.788235
0.443137 0.654902 0.788235
0.400000 0.643137 0.796078
0.505882 0.654902 0.796078
0.592157 0.670588 0.800000
0.666667 0.682353 0.796078
0.729412 0.686275 0.803922
0.784314 0.705882 0.803922
0.839216 0.713725 0.796078
0.886275 0.721569 0.800000
0.513725 0.709804 0.815686
0.486275 0.713725 0.807843
0.541176 0.717647 0.807843
0.623529 0.729412 0.811765
0.686275 0.737255 0.811765
0.741176 0.745098 0.815686
0.803922 0.760784 0.823529
0.850980 0.756863 0.811765
0.886275 0.760784 0.819608
0.588235 0.772549 0.811765
0.572549 0.756863 0.827451
0.611765 0.756863 0.819608
0.662745 0.772549 0.827451
0.717647 0.780392 0.831373
0.756863 0.784314 0.823529
0.807843 0.796078 0.839216
0.850980 0.800000 0.827451
0.894118 0.807843 0.854902
0.654902 0.807843 0.827451
0.643137 0.811765 0.847059
0.674510 0.803922 0.831373
0.713725 0.811765 0.831373
0.745098 0.819608 0.843137
0.784314 0.827451 0.843137
0.831373 0.831373 0.839216
0.878431 0.839216 0.843137
0.898039 0.843137 0.839216
0.721569 0.831373 0.835294
0.705882 0.831373 0.827451
0.721569 0.835294 0.827451
0.752941 0.835294 0.839216
0.780392 0.843137 0.843137
0.811765 0.847059 0.843137
0.847059 0.854902 0.843137
0.878431 0.858824 0.847059
0.905882 0.862745 0.854902
0.298039 0.466667 0.737255
0.368627 0.466667 0.729412
0.458824 0.482353 0.717647
0.552941 0.498039 0.737255
0.631373 0.517647 0.737255
0.705882 0.549020 0.752941
0.764706 0.572549 0.756863
0.823529 0.607843 0.764706
0.847059 0.611765 0.760784
0.309804 0.466667 0.749020
0.372549 0.470588 0.733333
0.470588 0.486275 0.737255
0.556863 0.494118 0.737255
0.635294 0.513725 0.737255
0.709804 0.541176 0.749020
0.768627 0.564706 0.752941
0.819608 0.600000 0.776471
0.839216 0.600000 0.760784
0.321569 0.533333 0.776471
0.396078 0.537255 0.764706
0.490196 0.556863 0.760784
0.564706 0.564706 0.760784
0.647059 0.584314 0.768627
0.717647 0.603922 0.776471
0.772549 0.623529 0.784314
0.827451 0.647059 0.788235
0.854902 0.654902 0.784314
0.360784 0.600000 0.784314
0.423529 0.607843 0.780392
0.517647 0.611765 0.784314
0.596078 0.631373 0.792157
0.662745 0.647059 0.792157
0.721569 0.654902 0.796078
0.776471 0.670588 0.800000
0.831373 0.690196 0.800000
0.854902 0.698039 0.800000
0.411765 0.658824 0.796078
0.478431 0.658824 0.792157
0.541176 0.670588 0.807843
0.607843 0.682353 0.811765
0.670588 0.682353 0.803922
0.741176 0.705882 0.819608
0.788235 0.717647 0.819608
0.843137 0.725490 0.819608
0.862745 0.729412 0.827451
0.498039 0.709804 0.819608
0.545098 0.717647 0.831373
0.596078 0.717647 0.827451
0.643137 0.725490 0.831373
0.690196 0.737255 0.831373
0.749020 0.749020 0.843137
0.803922 0.756863 0.843137
0.854902 0.772549 0.847059
0.862745 0.772549 0.843137
0.592157 0.756863 0.843137
0.607843 0.756863 0.831373
0.650980 0.760784 0.847059
0.690196 0.760784 0.847059
0.733333 0.776471 0.847059
0.772549 0.784314 0.850980
0.819608 0.792157 0.854902
0.866667 0.803922 0.847059
0.882353 0.803922 0.850980
0.674510 0.800000 0.858824
0.686275 0.803922 0.847059
0.705882 0.811765 0.854902
0.733333 0.807843 0.862745
0.760784 0.815686 0.858824
0.796078 0.823529 0.862745
0.835294 0.823529 0.858824
0.882353 0.839216 0.862745
0.886275 0.843137 0.866667
0.737255 0.835294 0.862745
0.749020 0.827451 0.862745
0.760784 0.835294 0.858824
0.772549 0.843137 0.858824
0.792157 0.850980 0.878431
0.815686 0.843137 0.866667
0.850980 0.854902 0.870588
0.886275 0.862745 0.870588
0.894118 0.850980 0.866667
