Examples/DCRDemo/DCRDemo/Resources/LUTs/amber.cube
#Generated by Presets Store
#https://presetsstore.com
TITLE "Amber CCD"
LUT_3D_SIZE 5
0.050980 0.031373 0.047059
0.305882 0.039216 0.003922
0.549020 0.035294 0.003922
0.764706 0.125490 0.003922
0.772549 0.207843 0.000000
0.035294 0.219608 0.086275
0.270588 0.301961 0.015686
0.580392 0.360784 0.027451
0.760784 0.439216 0.015686
0.760784 0.466667 0.015686
0.015686 0.450980 0.090196
0.192157 0.537255 0.058824
0.603922 0.580392 0.039216
0.800000 0.615686 0.105882
0.784314 0.639216 0.090196
0.129412 0.662745 0.105882
0.380392 0.678431 0.047059
0.611765 0.725490 0.035294
0.835294 0.776471 0.074510
0.839216 0.772549 0.113725
0.466667 0.725490 0.066667
0.552941 0.741176 0.035294
0.690196 0.768627 0.043137
0.847059 0.800000 0.086275
0.870588 0.811765 0.164706
0.235294 0.047059 0.282353
0.360784 0.043137 0.262745
0.650980 0.054902 0.137255
0.792157 0.133333 0.082353
0.858824 0.274510 0.109804
0.180392 0.305882 0.262745
0.317647 0.325490 0.270588
0.627451 0.380392 0.109804
0.780392 0.447059 0.094118
0.874510 0.498039 0.105882
0.172549 0.560784 0.239216
0.294118 0.588235 0.223529
0.623529 0.623529 0.113725
0.796078 0.635294 0.141176
0.882353 0.662745 0.180392
0.388235 0.713725 0.188235
0.466667 0.717647 0.145098
0.674510 0.745098 0.101961
0.843137 0.788235 0.133333
0.905882 0.780392 0.243137
0.564706 0.768627 0.203922
0.600000 0.764706 0.200000
0.721569 0.784314 0.196078
0.850980 0.807843 0.250980
0.917647 0.819608 0.356863
0.227451 0.117647 0.560784
0.392157 0.121569 0.537255
0.654902 0.156863 0.498039
0.792157 0.243137 0.490196
0.850980 0.345098 0.498039
0.172549 0.345098 0.623529
0.368627 0.376471 0.600000
0.631373 0.411765 0.556863
0.780392 0.478431 0.556863
0.854902 0.533333 0.549020
0.152941 0.600000 0.643137
0.392157 0.607843 0.635294
0.639216 0.639216 0.600000
0.792157 0.670588 0.600000
0.870588 0.698039 0.592157
0.415686 0.725490 0.611765
0.517647 0.733333 0.607843
0.686275 0.749020 0.603922
0.815686 0.772549 0.596078
0.898039 0.780392 0.631373
0.603922 0.796078 0.576471
0.647059 0.800000 0.584314
0.741176 0.815686 0.600000
0.843137 0.831373 0.631373
0.909804 0.835294 0.666667
0.215686 0.231373 0.650980
0.411765 0.247059 0.631373
0.650980 0.309804 0.627451
0.776471 0.376471 0.631373
0.843137 0.458824 0.650980
0.188235 0.411765 0.721569
0.400000 0.427451 0.701961
0.631373 0.474510 0.682353
0.776471 0.521569 0.686275
0.858824 0.564706 0.686275
0.235294 0.600000 0.760784
0.447059 0.615686 0.749020
0.650980 0.650980 0.752941
0.788235 0.682353 0.749020
0.870588 0.713725 0.756863
0.478431 0.741176 0.772549
0.568627 0.745098 0.764706
0.698039 0.756863 0.776471
0.811765 0.780392 0.772549
0.878431 0.803922 0.780392
0.682353 0.815686 0.760784
0.701961 0.831373 0.764706
0.745098 0.835294 0.772549
0.843137 0.847059 0.784314
0.898039 0.850980 0.796078
0.298039 0.466667 0.737255
0.458824 0.482353 0.717647
0.631373 0.517647 0.737255
0.764706 0.572549 0.756863
0.847059 0.611765 0.760784
0.321569 0.533333 0.776471
0.490196 0.556863 0.760784
0.647059 0.584314 0.768627
0.772549 0.623529 0.784314
0.854902 0.654902 0.784314
0.411765 0.658824 0.796078
0.541176 0.670588 0.807843
0.670588 0.682353 0.803922
0.788235 0.717647 0.819608
0.862745 0.729412 0.827451
0.592157 0.756863 0.843137
0.650980 0.760784 0.847059
0.733333 0.776471 0.847059
0.819608 0.792157 0.854902
0.882353 0.803922 0.850980
0.737255 0.835294 0.862745
0.760784 0.835294 0.858824
0.792157 0.850980 0.878431
0.850980 0.854902 0.870588
0.894118 0.850980 0.866667
