Examples/DCRDemo/DCRDemo/Resources/LUTs/frost.cube
#Generated by Presets Store
#https://presetsstore.com
TITLE "Frost CCD"
LUT_3D_SIZE 5
0.054902 0.058824 0.074510
0.211765 0.058824 0.062745
0.552941 0.074510 0.054902
0.780392 0.133333 0.109804
0.854902 0.156863 0.109804
0.117647 0.290196 0.231373
0.215686 0.266667 0.149020
0.580392 0.196078 0.090196
0.788235 0.203922 0.117647
0.866667 0.235294 0.125490
0.223529 0.603922 0.435294
0.250980 0.607843 0.435294
0.584314 0.568627 0.321569
0.823529 0.498039 0.239216
0.901961 0.505882 0.223529
0.278431 0.803922 0.556863
0.278431 0.800000 0.545098
0.458824 0.803922 0.372549
0.800000 0.788235 0.407843
0.862745 0.760784 0.388235
0.309804 0.890196 0.592157
0.305882 0.886275 0.580392
0.388235 0.898039 0.545098
0.737255 0.878431 0.447059
0.886275 0.886275 0.447059
0.074510 0.082353 0.243137
0.243137 0.054902 0.219608
0.568627 0.086275 0.098039
0.784314 0.141176 0.133333
0.850980 0.164706 0.152941
0.184314 0.290196 0.317647
0.294118 0.305882 0.333333
0.603922 0.262745 0.188235
0.803922 0.262745 0.160784
0.858824 0.262745 0.168627
0.282353 0.619608 0.513725
0.313725 0.627451 0.513725
0.619608 0.596078 0.400000
0.831373 0.537255 0.321569
0.874510 0.537255 0.305882
0.294118 0.827451 0.576471
0.301961 0.819608 0.592157
0.490196 0.823529 0.419608
0.800000 0.792157 0.450980
0.862745 0.772549 0.407843
0.305882 0.886275 0.588235
0.301961 0.882353 0.576471
0.384314 0.894118 0.541176
0.733333 0.874510 0.450980
0.882353 0.882353 0.435294
0.078431 0.152941 0.450980
0.168627 0.145098 0.427451
0.584314 0.133333 0.356863
0.807843 0.184314 0.309804
0.854902 0.192157 0.282353
0.176471 0.294118 0.529412
0.207843 0.305882 0.525490
0.619608 0.282353 0.435294
0.827451 0.298039 0.364706
0.882353 0.262745 0.317647
0.356863 0.654902 0.745098
0.400000 0.666667 0.741176
0.674510 0.670588 0.690196
0.854902 0.658824 0.631373
0.898039 0.639216 0.592157
0.400000 0.827451 0.803922
0.423529 0.835294 0.815686
0.647059 0.850980 0.760784
0.858824 0.839216 0.690196
0.901961 0.831373 0.650980
0.372549 0.894118 0.780392
0.384314 0.890196 0.780392
0.505882 0.909804 0.741176
0.792157 0.905882 0.647059
0.913725 0.909804 0.654902
0.121569 0.223529 0.658824
0.156863 0.219608 0.654902
0.450980 0.149020 0.556863
0.835294 0.192157 0.462745
0.886275 0.207843 0.419608
0.196078 0.333333 0.725490
0.223529 0.333333 0.713725
0.498039 0.294118 0.619608
0.839216 0.301961 0.521569
0.901961 0.294118 0.466667
0.333333 0.607843 0.843137
0.360784 0.619608 0.847059
0.603922 0.639216 0.807843
0.874510 0.611765 0.772549
0.929412 0.603922 0.721569
0.411765 0.831373 0.909804
0.447059 0.843137 0.921569
0.674510 0.847059 0.890196
0.878431 0.862745 0.858824
0.945098 0.866667 0.862745
0.454902 0.894118 0.901961
0.478431 0.890196 0.905882
0.690196 0.925490 0.917647
0.858824 0.941176 0.874510
0.941176 0.937255 0.866667
0.133333 0.239216 0.752941
0.160784 0.239216 0.752941
0.345098 0.200000 0.713725
0.776471 0.196078 0.627451
0.921569 0.235294 0.600000
0.203922 0.333333 0.784314
0.219608 0.345098 0.772549
0.372549 0.309804 0.737255
0.780392 0.274510 0.666667
0.917647 0.294118 0.615686
0.305882 0.541176 0.886275
0.333333 0.572549 0.890196
0.478431 0.568627 0.843137
0.796078 0.541176 0.800000
0.937255 0.560784 0.800000
0.392157 0.788235 0.960784
0.431373 0.792157 0.952941
0.631373 0.823529 0.949020
0.850980 0.835294 0.925490
0.952941 0.839216 0.925490
0.517647 0.898039 0.964706
0.576471 0.901961 0.956863
0.752941 0.921569 0.949020
0.905882 0.945098 0.941176
0.960784 0.945098 0.941176
