Examples/DCRDemo/DCRDemo/Resources/LUTs/frost.cube
#Generated by Presets Store
#https://presetsstore.com
TITLE "Frost CCD"
LUT_3D_SIZE 25
0.054902 0.058824 0.074510
0.062745 0.062745 0.070588
0.078431 0.062745 0.066667
0.101961 0.062745 0.066667
0.137255 0.066667 0.066667
0.176471 0.066667 0.062745
0.211765 0.058824 0.062745
0.247059 0.058824 0.050980
0.294118 0.062745 0.047059
0.349020 0.062745 0.039216
0.403922 0.058824 0.043137
0.474510 0.062745 0.050980
0.552941 0.074510 0.054902
0.619608 0.098039 0.070588
0.674510 0.105882 0.086275
0.701961 0.105882 0.086275
0.733333 0.117647 0.090196
0.760784 0.125490 0.105882
0.780392 0.133333 0.109804
0.803922 0.141176 0.113725
0.823529 0.152941 0.121569
0.835294 0.152941 0.117647
0.847059 0.152941 0.113725
0.850980 0.160784 0.109804
0.854902 0.156863 0.109804
0.058824 0.074510 0.078431
0.062745 0.078431 0.082353
0.074510 0.078431 0.086275
0.105882 0.074510 0.066667
0.137255 0.074510 0.074510
0.168627 0.066667 0.070588
0.211765 0.062745 0.058824
0.250980 0.062745 0.047059
0.298039 0.066667 0.050980
0.352941 0.058824 0.039216
0.407843 0.058824 0.043137
0.474510 0.062745 0.047059
0.552941 0.074510 0.054902
0.619608 0.098039 0.078431
0.674510 0.105882 0.086275
0.705882 0.109804 0.090196
0.733333 0.117647 0.098039
0.764706 0.125490 0.105882
0.780392 0.133333 0.109804
0.803922 0.141176 0.113725
0.827451 0.149020 0.121569
0.835294 0.152941 0.117647
0.850980 0.149020 0.121569
0.847059 0.156863 0.105882
0.850980 0.152941 0.113725
0.062745 0.098039 0.094118
0.070588 0.094118 0.094118
0.074510 0.090196 0.086275
0.094118 0.090196 0.074510
0.133333 0.090196 0.066667
0.168627 0.086275 0.066667
0.207843 0.070588 0.062745
0.250980 0.062745 0.054902
0.298039 0.054902 0.058824
0.352941 0.058824 0.039216
0.411765 0.062745 0.039216
0.474510 0.070588 0.050980
0.556863 0.082353 0.050980
0.627451 0.086275 0.074510
0.666667 0.105882 0.082353
0.701961 0.105882 0.086275
0.733333 0.117647 0.098039
0.760784 0.125490 0.105882
0.780392 0.133333 0.109804
0.803922 0.141176 0.113725
0.827451 0.149020 0.121569
0.843137 0.149020 0.117647
0.839216 0.156863 0.121569
0.850980 0.160784 0.109804
0.858824 0.160784 0.121569
0.070588 0.129412 0.117647
0.066667 0.133333 0.109804
0.082353 0.125490 0.109804
0.101961 0.129412 0.101961
0.133333 0.117647 0.082353
0.180392 0.109804 0.070588
0.215686 0.101961 0.070588
0.258824 0.090196 0.066667
0.301961 0.074510 0.058824
0.352941 0.074510 0.050980
0.403922 0.070588 0.050980
0.474510 0.062745 0.050980
0.556863 0.074510 0.054902
0.627451 0.090196 0.066667
0.670588 0.109804 0.086275
0.698039 0.113725 0.090196
0.725490 0.117647 0.098039
0.760784 0.121569 0.101961
0.788235 0.133333 0.101961
0.803922 0.145098 0.109804
0.823529 0.145098 0.117647
0.831373 0.156863 0.117647
0.850980 0.152941 0.113725
0.850980 0.160784 0.109804
0.854902 0.156863 0.101961
0.082353 0.180392 0.156863
0.090196 0.180392 0.149020
0.094118 0.184314 0.145098
0.113725 0.180392 0.141176
0.145098 0.168627 0.113725
0.180392 0.156863 0.094118
0.211765 0.137255 0.078431
0.262745 0.121569 0.058824
0.317647 0.117647 0.050980
0.364706 0.098039 0.054902
0.411765 0.101961 0.050980
0.490196 0.105882 0.070588
0.584314 0.109804 0.066667
0.631373 0.109804 0.074510
0.670588 0.109804 0.078431
0.701961 0.105882 0.086275
0.733333 0.117647 0.098039
0.764706 0.125490 0.105882
0.784314 0.141176 0.105882
0.803922 0.141176 0.113725
0.823529 0.152941 0.113725
0.835294 0.152941 0.117647
0.850980 0.152941 0.113725
0.858824 0.160784 0.113725
0.862745 0.172549 0.121569
0.105882 0.235294 0.200000
0.094118 0.235294 0.188235
0.101961 0.235294 0.180392
0.109804 0.235294 0.176471
0.145098 0.227451 0.152941
0.184314 0.219608 0.137255
0.231373 0.188235 0.101961
0.262745 0.176471 0.082353
0.305882 0.164706 0.070588
0.364706 0.145098 0.054902
0.423529 0.145098 0.066667
0.498039 0.149020 0.078431
0.584314 0.152941 0.086275
0.635294 0.152941 0.090196
0.686275 0.152941 0.098039
0.721569 0.149020 0.090196
0.745098 0.156863 0.101961
0.772549 0.160784 0.109804
0.796078 0.160784 0.109804
0.807843 0.164706 0.117647
0.827451 0.168627 0.117647
0.847059 0.180392 0.121569
0.862745 0.192157 0.125490
0.866667 0.196078 0.125490
0.862745 0.211765 0.125490
0.117647 0.290196 0.231373
0.117647 0.286275 0.219608
0.117647 0.286275 0.211765
0.121569 0.290196 0.215686
0.145098 0.294118 0.211765
0.180392 0.290196 0.192157
0.215686 0.266667 0.149020
0.270588 0.243137 0.129412
0.317647 0.227451 0.105882
0.376471 0.196078 0.062745
0.427451 0.188235 0.066667
0.501961 0.200000 0.090196
0.580392 0.196078 0.090196
0.643137 0.196078 0.101961
0.686275 0.200000 0.105882
0.717647 0.200000 0.109804
0.749020 0.200000 0.109804
0.768627 0.196078 0.105882
0.788235 0.203922 0.117647
0.811765 0.203922 0.117647
0.835294 0.211765 0.125490
0.847059 0.219608 0.125490
0.862745 0.227451 0.137255
0.866667 0.243137 0.129412
0.866667 0.235294 0.125490
0.137255 0.325490 0.262745
0.133333 0.321569 0.258824
0.129412 0.329412 0.254902
0.145098 0.329412 0.250980
0.156863 0.333333 0.250980
0.180392 0.329412 0.247059
0.215686 0.313725 0.188235
0.270588 0.298039 0.164706
0.329412 0.274510 0.137255
0.372549 0.247059 0.098039
0.435294 0.223529 0.082353
0.513725 0.227451 0.098039
0.592157 0.239216 0.101961
0.639216 0.235294 0.098039
0.682353 0.235294 0.101961
0.721569 0.239216 0.117647
0.752941 0.239216 0.129412
0.776471 0.235294 0.125490
0.800000 0.235294 0.129412
0.815686 0.247059 0.133333
0.835294 0.250980 0.133333
0.850980 0.247059 0.137255
0.862745 0.254902 0.145098
0.878431 0.258824 0.145098
0.866667 0.266667 0.141176
0.141176 0.368627 0.282353
0.145098 0.372549 0.286275
0.156863 0.372549 0.290196
0.141176 0.368627 0.282353
0.164706 0.376471 0.286275
0.176471 0.380392 0.290196
0.219608 0.380392 0.247059
0.266667 0.372549 0.203922
0.325490 0.341176 0.196078
0.384314 0.313725 0.164706
0.443137 0.290196 0.129412
0.521569 0.274510 0.105882
0.600000 0.274510 0.101961
0.647059 0.278431 0.129412
0.698039 0.274510 0.125490
0.729412 0.266667 0.125490
0.756863 0.270588 0.129412
0.776471 0.274510 0.137255
0.800000 0.274510 0.137255
0.811765 0.274510 0.133333
0.839216 0.282353 0.141176
0.862745 0.282353 0.141176
0.874510 0.286275 0.149020
0.870588 0.290196 0.141176
0.874510 0.301961 0.156863
0.156863 0.423529 0.325490
0.156863 0.431373 0.329412
0.152941 0.427451 0.325490
0.160784 0.427451 0.329412
0.172549 0.427451 0.333333
0.184314 0.431373 0.317647
0.215686 0.439216 0.313725
0.254902 0.439216 0.274510
0.313725 0.423529 0.235294
0.392157 0.396078 0.223529
0.458824 0.376471 0.200000
0.525490 0.356863 0.156863
0.607843 0.341176 0.156863
0.654902 0.325490 0.145098
0.701961 0.317647 0.141176
0.733333 0.313725 0.141176
0.764706 0.313725 0.141176
0.784314 0.309804 0.141176
0.807843 0.317647 0.145098
0.823529 0.325490 0.156863
0.847059 0.313725 0.164706
0.854902 0.313725 0.160784
0.866667 0.321569 0.160784
0.870588 0.333333 0.160784
0.874510 0.337255 0.164706
0.184314 0.482353 0.372549
0.172549 0.482353 0.360784
0.172549 0.486275 0.380392
0.176471 0.482353 0.380392
0.172549 0.490196 0.364706
0.192157 0.486275 0.364706
0.215686 0.490196 0.349020
0.254902 0.498039 0.352941
0.298039 0.494118 0.286275
0.376471 0.470588 0.266667
0.439216 0.450980 0.243137
0.513725 0.431373 0.215686
0.611765 0.411765 0.196078
0.654902 0.392157 0.184314
0.694118 0.376471 0.168627
0.741176 0.372549 0.160784
0.764706 0.368627 0.164706
0.784314 0.364706 0.160784
0.815686 0.360784 0.160784
0.835294 0.364706 0.160784
0.850980 0.364706 0.164706
0.862745 0.368627 0.168627
0.870588 0.376471 0.176471
0.878431 0.384314 0.184314
0.882353 0.392157 0.180392
0.203922 0.549020 0.400000
0.196078 0.537255 0.403922
0.203922 0.541176 0.403922
0.200000 0.541176 0.403922
0.207843 0.545098 0.407843
0.215686 0.552941 0.400000
0.243137 0.556863 0.403922
0.254902 0.560784 0.396078
0.290196 0.556863 0.364706
0.352941 0.556863 0.305882
0.423529 0.537255 0.286275
0.513725 0.509804 0.290196
0.592157 0.494118 0.270588
0.639216 0.478431 0.235294
0.701961 0.450980 0.211765
0.729412 0.439216 0.200000
0.764706 0.435294 0.192157
0.792157 0.423529 0.184314
0.815686 0.423529 0.192157
0.847059 0.419608 0.196078
0.854902 0.423529 0.184314
0.870588 0.427451 0.192157
0.878431 0.431373 0.188235
0.882353 0.435294 0.200000
0.890196 0.443137 0.200000
0.223529 0.603922 0.435294
0.219608 0.600000 0.431373
0.219608 0.607843 0.435294
0.215686 0.603922 0.431373
0.211765 0.607843 0.443137
0.223529 0.603922 0.435294
0.250980 0.607843 0.435294
0.274510 0.611765 0.435294
0.301961 0.615686 0.415686
0.337255 0.615686 0.349020
0.411765 0.596078 0.313725
0.501961 0.584314 0.329412
0.584314 0.568627 0.321569
0.627451 0.556863 0.313725
0.690196 0.537255 0.282353
0.721569 0.521569 0.262745
0.768627 0.517647 0.239216
0.796078 0.505882 0.227451
0.823529 0.498039 0.239216
0.843137 0.494118 0.235294
0.858824 0.494118 0.231373
0.882353 0.494118 0.227451
0.882353 0.498039 0.203922
0.898039 0.501961 0.219608
0.901961 0.505882 0.223529
0.235294 0.639216 0.454902
0.235294 0.639216 0.454902
0.227451 0.643137 0.454902
0.227451 0.643137 0.454902
0.235294 0.650980 0.458824
0.239216 0.647059 0.454902
0.266667 0.658824 0.454902
0.282353 0.650980 0.454902
0.305882 0.654902 0.435294
0.345098 0.654902 0.400000
0.396078 0.639216 0.337255
0.486275 0.627451 0.345098
0.576471 0.611765 0.349020
0.643137 0.607843 0.345098
0.678431 0.603922 0.333333
0.713725 0.584314 0.305882
0.745098 0.568627 0.301961
0.788235 0.556863 0.290196
0.811765 0.560784 0.278431
0.839216 0.556863 0.258824
0.862745 0.549020 0.262745
0.874510 0.552941 0.254902
0.882353 0.564706 0.254902
0.878431 0.568627 0.258824
0.886275 0.568627 0.250980
0.247059 0.678431 0.494118
0.254902 0.678431 0.482353
0.247059 0.678431 0.486275
0.247059 0.682353 0.482353
0.243137 0.686275 0.482353
0.247059 0.682353 0.474510
0.266667 0.694118 0.466667
0.294118 0.698039 0.482353
0.309804 0.694118 0.470588
0.341176 0.694118 0.443137
0.388235 0.698039 0.380392
0.466667 0.678431 0.341176
0.572549 0.658824 0.372549
0.623529 0.654902 0.360784
0.678431 0.654902 0.356863
0.709804 0.654902 0.360784
0.745098 0.643137 0.349020
0.764706 0.623529 0.325490
0.796078 0.615686 0.309804
0.819608 0.611765 0.305882
0.843137 0.623529 0.290196
0.858824 0.615686 0.290196
0.874510 0.615686 0.286275
0.878431 0.619608 0.290196
0.878431 0.619608 0.290196
0.254902 0.721569 0.501961
0.254902 0.721569 0.494118
0.266667 0.717647 0.494118
0.258824 0.717647 0.501961
0.266667 0.717647 0.501961
0.254902 0.721569 0.501961
0.270588 0.721569 0.498039
0.290196 0.737255 0.505882
0.305882 0.733333 0.505882
0.356863 0.729412 0.470588
0.384314 0.725490 0.415686
0.439216 0.713725 0.368627
0.533333 0.698039 0.360784
0.603922 0.686275 0.376471
0.662745 0.678431 0.380392
0.709804 0.686275 0.380392
0.741176 0.694118 0.372549
0.764706 0.682353 0.364706
0.792157 0.670588 0.349020
0.815686 0.666667 0.341176
0.839216 0.662745 0.337255
0.858824 0.662745 0.329412
0.866667 0.662745 0.333333
0.870588 0.666667 0.329412
0.882353 0.670588 0.333333
0.262745 0.749020 0.513725
0.262745 0.745098 0.521569
0.270588 0.752941 0.529412
0.262745 0.749020 0.513725
0.258824 0.749020 0.521569
0.266667 0.749020 0.525490
0.262745 0.745098 0.521569
0.294118 0.756863 0.521569
0.313725 0.764706 0.509804
0.364706 0.768627 0.498039
0.380392 0.760784 0.458824
0.419608 0.752941 0.388235
0.509804 0.745098 0.368627
0.600000 0.733333 0.396078
0.662745 0.721569 0.388235
0.705882 0.721569 0.388235
0.749020 0.725490 0.388235
0.776471 0.717647 0.384314
0.796078 0.717647 0.380392
0.811765 0.709804 0.368627
0.831373 0.709804 0.356863
0.847059 0.709804 0.356863
0.862745 0.705882 0.360784
0.862745 0.701961 0.349020
0.874510 0.705882 0.345098
0.262745 0.784314 0.529412
0.274510 0.780392 0.529412
0.282353 0.776471 0.529412
0.282353 0.776471 0.529412
0.270588 0.776471 0.525490
0.266667 0.772549 0.517647
0.270588 0.776471 0.525490
0.278431 0.792157 0.525490
0.309804 0.792157 0.537255
0.352941 0.788235 0.521569
0.388235 0.784314 0.478431
0.407843 0.784314 0.403922
0.478431 0.772549 0.368627
0.584314 0.760784 0.396078
0.654902 0.756863 0.407843
0.698039 0.752941 0.407843
0.741176 0.760784 0.407843
0.772549 0.756863 0.407843
0.796078 0.752941 0.403922
0.811765 0.745098 0.392157
0.835294 0.741176 0.388235
0.858824 0.745098 0.384314
0.862745 0.741176 0.388235
0.854902 0.741176 0.380392
0.858824 0.737255 0.380392
0.278431 0.803922 0.556863
0.278431 0.807843 0.549020
0.274510 0.803922 0.545098
0.278431 0.807843 0.549020
0.270588 0.800000 0.537255
0.270588 0.796078 0.549020
0.278431 0.800000 0.545098
0.290196 0.803922 0.537255
0.313725 0.811765 0.549020
0.349020 0.819608 0.537255
0.376471 0.819608 0.513725
0.415686 0.811765 0.435294
0.458824 0.803922 0.372549
0.556863 0.800000 0.380392
0.635294 0.792157 0.411765
0.686275 0.784314 0.415686
0.725490 0.784314 0.411765
0.752941 0.792157 0.403922
0.800000 0.788235 0.407843
0.819608 0.784314 0.411765
0.835294 0.768627 0.407843
0.847059 0.772549 0.400000
0.858824 0.760784 0.400000
0.858824 0.764706 0.388235
0.862745 0.760784 0.388235
0.286275 0.823529 0.556863
0.282353 0.827451 0.560784
0.278431 0.835294 0.552941
0.278431 0.827451 0.549020
0.278431 0.831373 0.560784
0.290196 0.827451 0.560784
0.278431 0.823529 0.560784
0.282353 0.827451 0.560784
0.301961 0.831373 0.560784
0.337255 0.839216 0.545098
0.356863 0.839216 0.525490
0.407843 0.835294 0.470588
0.439216 0.831373 0.384314
0.525490 0.823529 0.396078
0.615686 0.815686 0.411765
0.674510 0.811765 0.419608
0.721569 0.807843 0.423529
0.752941 0.807843 0.423529
0.792157 0.815686 0.423529
0.819608 0.811765 0.419608
0.839216 0.800000 0.419608
0.850980 0.796078 0.415686
0.858824 0.788235 0.403922
0.862745 0.784314 0.403922
0.862745 0.784314 0.403922
0.278431 0.850980 0.572549
0.282353 0.847059 0.564706
0.282353 0.847059 0.564706
0.294118 0.843137 0.564706
0.278431 0.850980 0.564706
0.286275 0.850980 0.576471
0.282353 0.847059 0.572549
0.298039 0.847059 0.568627
0.286275 0.854902 0.552941
0.333333 0.850980 0.556863
0.360784 0.858824 0.541176
0.388235 0.854902 0.486275
0.427451 0.850980 0.415686
0.501961 0.847059 0.403922
0.600000 0.843137 0.415686
0.658824 0.839216 0.415686
0.721569 0.831373 0.431373
0.745098 0.831373 0.435294
0.784314 0.831373 0.431373
0.811765 0.839216 0.435294
0.835294 0.839216 0.439216
0.850980 0.831373 0.431373
0.862745 0.815686 0.423529
0.866667 0.811765 0.423529
0.866667 0.803922 0.419608
0.294118 0.866667 0.572549
0.298039 0.862745 0.580392
0.286275 0.866667 0.576471
0.298039 0.870588 0.576471
0.286275 0.866667 0.568627
0.294118 0.866667 0.580392
0.290196 0.862745 0.568627
0.294118 0.866667 0.580392
0.290196 0.862745 0.584314
0.313725 0.874510 0.552941
0.356863 0.882353 0.541176
0.392157 0.874510 0.517647
0.415686 0.870588 0.443137
0.466667 0.874510 0.400000
0.576471 0.870588 0.407843
0.654902 0.858824 0.435294
0.694118 0.858824 0.435294
0.737255 0.850980 0.435294
0.768627 0.850980 0.439216
0.815686 0.850980 0.439216
0.843137 0.854902 0.435294
0.862745 0.850980 0.431373
0.866667 0.839216 0.423529
0.878431 0.831373 0.431373
0.874510 0.827451 0.435294
0.286275 0.878431 0.560784
0.298039 0.878431 0.580392
0.294118 0.874510 0.576471
0.290196 0.882353 0.580392
0.298039 0.878431 0.580392
0.298039 0.878431 0.572549
0.294118 0.874510 0.576471
0.301961 0.882353 0.584314
0.298039 0.878431 0.580392
0.301961 0.878431 0.560784
0.341176 0.886275 0.560784
0.380392 0.890196 0.545098
0.411765 0.890196 0.462745
0.447059 0.886275 0.400000
0.529412 0.882353 0.396078
0.615686 0.878431 0.423529
0.690196 0.870588 0.443137
0.737255 0.870588 0.439216
0.760784 0.870588 0.439216
0.788235 0.874510 0.439216
0.819608 0.874510 0.439216
0.850980 0.866667 0.435294
0.866667 0.854902 0.435294
0.874510 0.858824 0.427451
0.878431 0.843137 0.431373
0.305882 0.882353 0.568627
0.298039 0.878431 0.572549
0.301961 0.882353 0.584314
0.294118 0.886275 0.584314
0.305882 0.886275 0.580392
0.305882 0.886275 0.580392
0.290196 0.882353 0.580392
0.290196 0.886275 0.600000
0.290196 0.886275 0.584314
0.305882 0.878431 0.584314
0.333333 0.886275 0.576471
0.372549 0.890196 0.552941
0.415686 0.894118 0.498039
0.423529 0.886275 0.415686
0.498039 0.890196 0.411765
0.592157 0.882353 0.407843
0.666667 0.878431 0.439216
0.729412 0.874510 0.458824
0.749020 0.882353 0.443137
0.784314 0.878431 0.439216
0.811765 0.878431 0.439216
0.839216 0.878431 0.439216
0.858824 0.874510 0.439216
0.882353 0.874510 0.447059
0.890196 0.858824 0.431373
0.309804 0.890196 0.592157
0.301961 0.882353 0.584314
0.294118 0.886275 0.584314
0.298039 0.890196 0.580392
0.290196 0.882353 0.572549
0.305882 0.886275 0.588235
0.305882 0.886275 0.580392
0.298039 0.878431 0.588235
0.298039 0.882353 0.564706
0.301961 0.882353 0.584314
0.301961 0.882353 0.576471
0.356863 0.890196 0.568627
0.388235 0.898039 0.545098
0.411765 0.886275 0.470588
0.454902 0.878431 0.400000
0.533333 0.890196 0.392157
0.623529 0.890196 0.423529
0.690196 0.878431 0.439216
0.737255 0.878431 0.447059
0.768627 0.886275 0.447059
0.788235 0.874510 0.439216
0.823529 0.878431 0.443137
0.850980 0.874510 0.443137
0.870588 0.878431 0.447059
0.886275 0.886275 0.447059
0.074510 0.062745 0.098039
0.074510 0.062745 0.090196
0.086275 0.058824 0.086275
0.101961 0.058824 0.082353
0.137255 0.062745 0.070588
0.168627 0.066667 0.070588
0.219608 0.062745 0.066667
0.258824 0.062745 0.058824
0.305882 0.054902 0.047059
0.360784 0.054902 0.047059
0.415686 0.062745 0.058824
0.478431 0.066667 0.050980
0.552941 0.078431 0.047059
0.615686 0.094118 0.066667
0.670588 0.101961 0.082353
0.694118 0.109804 0.082353
0.725490 0.117647 0.098039
0.756863 0.121569 0.101961
0.780392 0.133333 0.109804
0.803922 0.145098 0.109804
0.823529 0.149020 0.109804
0.843137 0.149020 0.117647
0.850980 0.152941 0.113725
0.854902 0.156863 0.117647
0.854902 0.152941 0.125490
0.062745 0.074510 0.094118
0.066667 0.078431 0.098039
0.090196 0.086275 0.109804
0.113725 0.070588 0.086275
0.145098 0.070588 0.078431
0.172549 0.070588 0.074510
0.219608 0.070588 0.066667
0.254902 0.058824 0.054902
0.290196 0.062745 0.054902
0.356863 0.062745 0.050980
0.411765 0.058824 0.054902
0.478431 0.066667 0.054902
0.556863 0.078431 0.058824
0.619608 0.098039 0.078431
0.670588 0.109804 0.078431
0.698039 0.113725 0.090196
0.737255 0.121569 0.094118
0.760784 0.129412 0.098039
0.780392 0.141176 0.113725
0.800000 0.145098 0.113725
0.819608 0.149020 0.109804
0.835294 0.152941 0.117647
0.850980 0.149020 0.121569
0.854902 0.145098 0.109804
0.862745 0.152941 0.125490
0.074510 0.098039 0.098039
0.082353 0.105882 0.105882
0.094118 0.101961 0.098039
0.113725 0.098039 0.094118
0.145098 0.090196 0.078431
0.172549 0.090196 0.078431
0.219608 0.082353 0.066667
0.247059 0.070588 0.058824
0.298039 0.062745 0.070588
0.364706 0.058824 0.050980
0.419608 0.050980 0.043137
0.474510 0.062745 0.047059
0.549020 0.082353 0.050980
0.619608 0.098039 0.070588
0.670588 0.101961 0.082353
0.701961 0.105882 0.086275
0.733333 0.117647 0.098039
0.760784 0.125490 0.105882
0.788235 0.133333 0.109804
0.811765 0.141176 0.113725
0.831373 0.149020 0.121569
0.847059 0.145098 0.117647
0.843137 0.160784 0.117647
0.847059 0.149020 0.094118
0.862745 0.152941 0.117647
0.086275 0.133333 0.125490
0.074510 0.137255 0.125490
0.098039 0.137255 0.133333
0.101961 0.125490 0.109804
0.152941 0.125490 0.101961
0.200000 0.109804 0.086275
0.219608 0.101961 0.070588
0.250980 0.094118 0.062745
0.294118 0.078431 0.050980
0.349020 0.074510 0.035294
0.411765 0.066667 0.050980
0.474510 0.062745 0.047059
0.552941 0.074510 0.054902
0.627451 0.098039 0.074510
0.666667 0.098039 0.086275
0.701961 0.105882 0.086275
0.725490 0.117647 0.098039
0.752941 0.133333 0.098039
0.788235 0.133333 0.109804
0.803922 0.141176 0.113725
0.827451 0.149020 0.121569
0.835294 0.152941 0.109804
0.847059 0.152941 0.121569
0.854902 0.156863 0.109804
0.843137 0.160784 0.117647
0.078431 0.180392 0.145098
0.078431 0.184314 0.156863
0.094118 0.184314 0.145098
0.113725 0.180392 0.156863
0.145098 0.176471 0.117647
0.184314 0.156863 0.094118
0.223529 0.141176 0.074510
0.254902 0.133333 0.054902
0.305882 0.117647 0.062745
0.372549 0.105882 0.054902
0.415686 0.101961 0.058824
0.490196 0.105882 0.062745
0.580392 0.117647 0.078431
0.635294 0.121569 0.082353
0.678431 0.117647 0.086275
0.705882 0.109804 0.090196
0.733333 0.117647 0.098039
0.760784 0.125490 0.105882
0.784314 0.137255 0.113725
0.800000 0.145098 0.121569
0.819608 0.141176 0.113725
0.835294 0.152941 0.117647
0.843137 0.149020 0.109804
0.850980 0.160784 0.109804
0.858824 0.168627 0.117647
0.101961 0.231373 0.188235
0.094118 0.235294 0.180392
0.094118 0.235294 0.180392
0.117647 0.239216 0.180392
0.141176 0.239216 0.156863
0.184314 0.219608 0.137255
0.223529 0.192157 0.101961
0.266667 0.180392 0.086275
0.309804 0.164706 0.062745
0.364706 0.152941 0.058824
0.415686 0.149020 0.058824
0.494118 0.152941 0.074510
0.584314 0.156863 0.078431
0.631373 0.156863 0.082353
0.678431 0.156863 0.090196
0.717647 0.160784 0.105882
0.737255 0.160784 0.098039
0.760784 0.160784 0.098039
0.784314 0.168627 0.101961
0.803922 0.168627 0.109804
0.827451 0.176471 0.113725
0.843137 0.188235 0.125490
0.858824 0.192157 0.133333
0.870588 0.200000 0.133333
0.866667 0.215686 0.129412
0.125490 0.286275 0.223529
0.117647 0.286275 0.219608
0.109804 0.282353 0.215686
0.121569 0.298039 0.219608
0.145098 0.290196 0.219608
0.184314 0.286275 0.188235
0.235294 0.270588 0.164706
0.266667 0.247059 0.129412
0.309804 0.211765 0.094118
0.372549 0.192157 0.062745
0.427451 0.196078 0.070588
0.505882 0.196078 0.074510
0.588235 0.200000 0.078431
0.639216 0.203922 0.098039
0.690196 0.203922 0.101961
0.713725 0.211765 0.113725
0.741176 0.207843 0.113725
0.768627 0.203922 0.109804
0.796078 0.203922 0.121569
0.819608 0.207843 0.121569
0.835294 0.211765 0.125490
0.847059 0.219608 0.125490
0.862745 0.227451 0.137255
0.866667 0.239216 0.137255
0.870588 0.243137 0.141176
0.133333 0.321569 0.258824
0.133333 0.321569 0.258824
0.129412 0.329412 0.262745
0.133333 0.325490 0.243137
0.160784 0.337255 0.247059
0.176471 0.333333 0.239216
0.215686 0.313725 0.200000
0.274510 0.301961 0.168627
0.329412 0.278431 0.141176
0.380392 0.247059 0.101961
0.439216 0.227451 0.086275
0.513725 0.227451 0.098039
0.592157 0.239216 0.101961
0.643137 0.231373 0.117647
0.686275 0.239216 0.105882
0.717647 0.235294 0.113725
0.749020 0.243137 0.129412
0.768627 0.243137 0.129412
0.796078 0.243137 0.125490
0.823529 0.243137 0.125490
0.831373 0.247059 0.129412
0.858824 0.258824 0.137255
0.854902 0.254902 0.133333
0.870588 0.262745 0.141176
0.866667 0.266667 0.145098
0.149020 0.364706 0.282353
0.145098 0.372549 0.286275
0.149020 0.364706 0.282353
0.141176 0.372549 0.286275
0.164706 0.380392 0.290196
0.172549 0.380392 0.278431
0.219608 0.380392 0.247059
0.266667 0.368627 0.223529
0.321569 0.341176 0.184314
0.392157 0.317647 0.160784
0.450980 0.286275 0.121569
0.521569 0.274510 0.113725
0.607843 0.282353 0.125490
0.654902 0.278431 0.121569
0.694118 0.278431 0.121569
0.733333 0.270588 0.121569
0.749020 0.270588 0.125490
0.780392 0.270588 0.137255
0.788235 0.282353 0.129412
0.819608 0.282353 0.141176
0.839216 0.278431 0.152941
0.847059 0.282353 0.137255
0.858824 0.286275 0.133333
0.870588 0.298039 0.145098
0.878431 0.298039 0.149020
0.168627 0.423529 0.329412
0.168627 0.423529 0.329412
0.156863 0.431373 0.329412
0.152941 0.427451 0.325490
0.164706 0.431373 0.333333
0.180392 0.431373 0.325490
0.211765 0.443137 0.317647
0.254902 0.435294 0.282353
0.313725 0.423529 0.231373
0.392157 0.396078 0.223529
0.454902 0.372549 0.203922
0.533333 0.349020 0.168627
0.603922 0.337255 0.145098
0.654902 0.325490 0.145098
0.698039 0.313725 0.137255
0.733333 0.313725 0.141176
0.764706 0.313725 0.141176
0.784314 0.309804 0.133333
0.803922 0.313725 0.133333
0.823529 0.321569 0.145098
0.839216 0.317647 0.149020
0.854902 0.317647 0.152941
0.862745 0.317647 0.149020
0.870588 0.329412 0.149020
0.870588 0.333333 0.152941
0.172549 0.486275 0.372549
0.172549 0.490196 0.364706
0.172549 0.486275 0.380392
0.172549 0.486275 0.380392
0.180392 0.490196 0.368627
0.196078 0.490196 0.360784
0.227451 0.490196 0.352941
0.254902 0.498039 0.345098
0.298039 0.486275 0.290196
0.376471 0.470588 0.266667
