Examples/DCRDemo/DCRDemo/Resources/LUTs/frost.cube
#Generated by Presets Store
#https://presetsstore.com
TITLE "Frost CCD"
LUT_3D_SIZE 9
0.054902 0.058824 0.074510
0.101961 0.062745 0.066667
0.211765 0.058824 0.062745
0.349020 0.062745 0.039216
0.552941 0.074510 0.054902
0.701961 0.105882 0.086275
0.780392 0.133333 0.109804
0.835294 0.152941 0.117647
0.854902 0.156863 0.109804
0.070588 0.129412 0.117647
0.101961 0.129412 0.101961
0.215686 0.101961 0.070588
0.352941 0.074510 0.050980
0.556863 0.074510 0.054902
0.698039 0.113725 0.090196
0.788235 0.133333 0.101961
0.831373 0.156863 0.117647
0.854902 0.156863 0.101961
0.117647 0.290196 0.231373
0.121569 0.290196 0.215686
0.215686 0.266667 0.149020
0.376471 0.196078 0.062745
0.580392 0.196078 0.090196
0.717647 0.200000 0.109804
0.788235 0.203922 0.117647
0.847059 0.219608 0.125490
0.866667 0.235294 0.125490
0.156863 0.423529 0.325490
0.160784 0.427451 0.329412
0.215686 0.439216 0.313725
0.392157 0.396078 0.223529
0.607843 0.341176 0.156863
0.733333 0.313725 0.141176
0.807843 0.317647 0.145098
0.854902 0.313725 0.160784
0.874510 0.337255 0.164706
0.223529 0.603922 0.435294
0.215686 0.603922 0.431373
0.250980 0.607843 0.435294
0.337255 0.615686 0.349020
0.584314 0.568627 0.321569
0.721569 0.521569 0.262745
0.823529 0.498039 0.239216
0.882353 0.494118 0.227451
0.901961 0.505882 0.223529
0.254902 0.721569 0.501961
0.258824 0.717647 0.501961
0.270588 0.721569 0.498039
0.356863 0.729412 0.470588
0.533333 0.698039 0.360784
0.709804 0.686275 0.380392
0.792157 0.670588 0.349020
0.858824 0.662745 0.329412
0.882353 0.670588 0.333333
0.278431 0.803922 0.556863
0.278431 0.807843 0.549020
0.278431 0.800000 0.545098
0.349020 0.819608 0.537255
0.458824 0.803922 0.372549
0.686275 0.784314 0.415686
0.800000 0.788235 0.407843
0.847059 0.772549 0.400000
0.862745 0.760784 0.388235
0.294118 0.866667 0.572549
0.298039 0.870588 0.576471
0.290196 0.862745 0.568627
0.313725 0.874510 0.552941
0.415686 0.870588 0.443137
0.654902 0.858824 0.435294
0.768627 0.850980 0.439216
0.862745 0.850980 0.431373
0.874510 0.827451 0.435294
0.309804 0.890196 0.592157
0.298039 0.890196 0.580392
0.305882 0.886275 0.580392
0.301961 0.882353 0.584314
0.388235 0.898039 0.545098
0.533333 0.890196 0.392157
0.737255 0.878431 0.447059
0.823529 0.878431 0.443137
0.886275 0.886275 0.447059
0.101961 0.074510 0.137255
0.129412 0.070588 0.145098
0.235294 0.066667 0.105882
0.364706 0.066667 0.082353
0.576471 0.090196 0.082353
0.709804 0.125490 0.109804
0.784314 0.145098 0.125490
0.835294 0.160784 0.121569
0.850980 0.152941 0.113725
0.109804 0.141176 0.152941
0.125490 0.137255 0.164706
0.231373 0.113725 0.105882
0.368627 0.090196 0.066667
0.580392 0.101961 0.082353
0.709804 0.125490 0.109804
0.780392 0.141176 0.113725
0.831373 0.156863 0.117647
0.850980 0.160784 0.109804
0.145098 0.286275 0.247059
0.156863 0.298039 0.258824
0.247059 0.274510 0.203922
0.396078 0.211765 0.101961
0.600000 0.215686 0.109804
0.721569 0.219608 0.121569
0.788235 0.215686 0.125490
0.850980 0.231373 0.133333
0.862745 0.243137 0.129412
0.176471 0.443137 0.345098
0.176471 0.443137 0.352941
0.235294 0.454902 0.341176
0.407843 0.411765 0.247059
0.627451 0.352941 0.160784
0.721569 0.325490 0.145098
0.807843 0.313725 0.152941
0.850980 0.313725 0.149020
0.878431 0.325490 0.156863
0.219608 0.607843 0.427451
0.223529 0.603922 0.443137
0.250980 0.615686 0.431373
0.341176 0.611765 0.356863
0.584314 0.568627 0.321569
0.721569 0.521569 0.262745
0.815686 0.501961 0.231373
0.882353 0.494118 0.227451
0.894118 0.513725 0.235294
0.254902 0.713725 0.505882
0.254902 0.713725 0.498039
0.274510 0.725490 0.501961
0.345098 0.737255 0.462745
0.533333 0.701961 0.352941
0.709804 0.690196 0.372549
0.796078 0.674510 0.349020
0.850980 0.662745 0.333333
0.878431 0.662745 0.337255
0.274510 0.796078 0.549020
0.274510 0.803922 0.545098
0.278431 0.800000 0.541176
0.341176 0.815686 0.537255
0.454902 0.803922 0.372549
0.686275 0.784314 0.423529
0.792157 0.792157 0.407843
0.843137 0.760784 0.396078
0.870588 0.760784 0.380392
0.290196 0.866667 0.588235
0.298039 0.870588 0.576471
0.282353 0.870588 0.580392
0.317647 0.870588 0.564706
0.411765 0.874510 0.427451
0.650980 0.862745 0.427451
0.768627 0.854902 0.431373
0.858824 0.847059 0.435294
0.870588 0.827451 0.415686
0.298039 0.890196 0.588235
0.301961 0.882353 0.584314
0.305882 0.886275 0.580392
0.298039 0.886275 0.596078
0.384314 0.894118 0.541176
0.533333 0.886275 0.400000
0.737255 0.878431 0.447059
0.819608 0.874510 0.431373
0.886275 0.886275 0.447059
0.074510 0.082353 0.243137
0.125490 0.074510 0.254902
0.243137 0.054902 0.219608
0.360784 0.050980 0.137255
0.568627 0.086275 0.098039
0.717647 0.113725 0.121569
0.784314 0.141176 0.133333
0.839216 0.156863 0.152941
0.850980 0.164706 0.152941
0.082353 0.125490 0.250980
0.105882 0.129412 0.254902
0.243137 0.101961 0.243137
0.372549 0.094118 0.149020
0.584314 0.101961 0.109804
0.721569 0.141176 0.133333
0.780392 0.164706 0.137255
0.843137 0.164706 0.141176
0.854902 0.184314 0.156863
0.184314 0.290196 0.317647
0.211765 0.298039 0.341176
0.294118 0.305882 0.333333
0.423529 0.278431 0.243137
0.603922 0.262745 0.188235
0.733333 0.258824 0.176471
0.803922 0.262745 0.160784
0.850980 0.262745 0.168627
0.858824 0.262745 0.168627
0.239216 0.443137 0.427451
0.243137 0.450980 0.427451
0.298039 0.470588 0.419608
0.447059 0.439216 0.349020
0.631373 0.396078 0.286275
0.741176 0.368627 0.243137
0.811765 0.364706 0.223529
0.862745 0.360784 0.215686
0.866667 0.360784 0.207843
0.282353 0.619608 0.513725
0.270588 0.619608 0.509804
0.313725 0.627451 0.513725
0.407843 0.627451 0.450980
0.619608 0.596078 0.400000
0.749020 0.552941 0.352941
0.831373 0.537255 0.321569
0.882353 0.533333 0.298039
0.874510 0.537255 0.305882
0.298039 0.741176 0.568627
0.290196 0.733333 0.560784
0.301961 0.733333 0.556863
0.384314 0.741176 0.517647
0.576471 0.725490 0.423529
0.725490 0.709804 0.431373
0.807843 0.690196 0.407843
0.854902 0.682353 0.388235
0.866667 0.682353 0.360784
0.294118 0.827451 0.576471
0.298039 0.823529 0.592157
0.301961 0.819608 0.592157
0.380392 0.823529 0.580392
0.490196 0.823529 0.419608
0.709804 0.800000 0.454902
0.800000 0.792157 0.450980
0.862745 0.776471 0.439216
0.862745 0.772549 0.407843
0.305882 0.878431 0.600000
0.321569 0.874510 0.603922
0.309804 0.874510 0.592157
0.345098 0.878431 0.588235
0.454902 0.882353 0.470588
0.670588 0.862745 0.450980
0.776471 0.858824 0.454902
0.866667 0.854902 0.450980
0.866667 0.827451 0.443137
0.305882 0.886275 0.588235
0.294118 0.886275 0.584314
0.301961 0.882353 0.576471
0.298039 0.890196 0.588235
0.384314 0.894118 0.541176
0.529412 0.890196 0.400000
0.733333 0.874510 0.450980
0.823529 0.878431 0.443137
0.882353 0.882353 0.435294
0.094118 0.101961 0.333333
0.086275 0.105882 0.325490
0.200000 0.090196 0.321569
0.364706 0.070588 0.301961
0.556863 0.113725 0.231373
0.717647 0.141176 0.215686
0.796078 0.149020 0.176471
0.854902 0.160784 0.184314
0.874510 0.168627 0.172549
0.090196 0.145098 0.321569
0.094118 0.149020 0.333333
0.196078 0.129412 0.345098
0.380392 0.094118 0.309804
0.580392 0.117647 0.250980
0.713725 0.137255 0.207843
0.796078 0.145098 0.184314
0.850980 0.160784 0.168627
0.866667 0.184314 0.188235
0.180392 0.301961 0.384314
0.160784 0.290196 0.411765
0.231373 0.305882 0.431373
0.415686 0.290196 0.384314
0.611765 0.290196 0.337255
0.729412 0.282353 0.278431
0.815686 0.278431 0.254902
0.862745 0.321569 0.282353
0.874510 0.313725 0.258824
0.282353 0.466667 0.505882
0.266667 0.470588 0.521569
0.337255 0.486275 0.521569
0.466667 0.498039 0.505882
0.650980 0.470588 0.470588
0.749020 0.458824 0.407843
0.823529 0.443137 0.380392
0.866667 0.427451 0.349020
0.894118 0.415686 0.325490
0.341176 0.623529 0.611765
0.333333 0.631373 0.592157
0.376471 0.627451 0.623529
0.458824 0.647059 0.600000
0.650980 0.627451 0.533333
0.760784 0.607843 0.478431
0.843137 0.588235 0.462745
0.882353 0.588235 0.431373
0.898039 0.576471 0.392157
0.337255 0.737255 0.654902
0.345098 0.733333 0.654902
0.356863 0.741176 0.650980
0.443137 0.749020 0.647059
0.596078 0.741176 0.541176
0.749020 0.733333 0.545098
0.831373 0.713725 0.509804
0.886275 0.709804 0.478431
0.886275 0.698039 0.439216
0.337255 0.815686 0.670588
0.341176 0.815686 0.654902
0.341176 0.811765 0.662745
0.415686 0.815686 0.658824
0.529412 0.827451 0.572549
0.729412 0.811765 0.541176
0.803922 0.803922 0.529412
0.870588 0.800000 0.509804
0.878431 0.788235 0.490196
0.325490 0.866667 0.666667
0.341176 0.858824 0.662745
0.329412 0.866667 0.654902
0.372549 0.870588 0.662745
0.486275 0.882353 0.584314
0.678431 0.870588 0.521569
0.788235 0.866667 0.533333
0.862745 0.862745 0.517647
0.882353 0.843137 0.509804
0.317647 0.890196 0.635294
0.317647 0.882353 0.639216
0.325490 0.886275 0.635294
0.321569 0.882353 0.631373
0.431373 0.909804 0.615686
0.576471 0.898039 0.474510
0.745098 0.882353 0.521569
0.831373 0.886275 0.513725
0.890196 0.878431 0.505882
0.078431 0.152941 0.450980
0.090196 0.152941 0.447059
0.168627 0.145098 0.427451
0.321569 0.113725 0.388235
0.584314 0.133333 0.356863
0.721569 0.164706 0.313725
0.807843 0.184314 0.309804
0.858824 0.200000 0.298039
0.854902 0.192157 0.282353
0.094118 0.172549 0.450980
0.113725 0.180392 0.454902
0.172549 0.164706 0.450980
0.329412 0.121569 0.388235
0.596078 0.129412 0.341176
0.721569 0.168627 0.305882
0.803922 0.184314 0.313725
0.854902 0.203922 0.298039
0.866667 0.184314 0.274510
0.176471 0.294118 0.529412
0.188235 0.305882 0.549020
0.207843 0.305882 0.525490
0.368627 0.278431 0.482353
0.619608 0.282353 0.435294
0.741176 0.301961 0.388235
0.827451 0.298039 0.364706
0.874510 0.294118 0.341176
0.882353 0.262745 0.317647
0.274510 0.474510 0.650980
0.274510 0.474510 0.643137
0.309804 0.478431 0.643137
0.419608 0.482353 0.611765
0.647059 0.470588 0.560784
0.756863 0.474510 0.521569
0.835294 0.443137 0.474510
0.878431 0.423529 0.435294
0.890196 0.419608 0.415686
0.356863 0.654902 0.745098
0.360784 0.658824 0.721569
0.400000 0.666667 0.741176
0.501961 0.666667 0.713725
0.674510 0.670588 0.690196
0.784314 0.662745 0.654902
0.854902 0.658824 0.631373
0.909804 0.639216 0.611765
0.898039 0.639216 0.592157
0.392157 0.741176 0.764706
0.384314 0.733333 0.756863
0.427451 0.745098 0.760784
0.529412 0.764706 0.768627
0.670588 0.780392 0.733333
0.784314 0.772549 0.698039
0.862745 0.752941 0.666667
0.913725 0.760784 0.647059
0.925490 0.752941 0.639216
0.400000 0.827451 0.803922
0.396078 0.827451 0.815686
0.423529 0.835294 0.815686
0.509804 0.847059 0.811765
0.647059 0.850980 0.760784
0.768627 0.847059 0.701961
0.858824 0.839216 0.690196
0.901961 0.827451 0.658824
0.901961 0.831373 0.650980
0.388235 0.878431 0.815686
0.384314 0.882353 0.815686
0.388235 0.886275 0.811765
0.474510 0.890196 0.800000
0.603922 0.901961 0.760784
0.733333 0.901961 0.690196
0.839216 0.898039 0.682353
0.901961 0.898039 0.678431
0.913725 0.886275 0.670588
0.372549 0.894118 0.780392
0.384314 0.890196 0.772549
0.384314 0.890196 0.780392
0.403922 0.894118 0.776471
0.505882 0.909804 0.741176
0.639216 0.909804 0.647059
0.792157 0.905882 0.647059
0.862745 0.898039 0.643137
0.913725 0.909804 0.654902
0.082353 0.164706 0.521569
0.086275 0.160784 0.529412
0.141176 0.152941 0.525490
0.250980 0.129412 0.494118
0.494118 0.113725 0.423529
0.725490 0.145098 0.372549
0.811765 0.172549 0.356863
0.854902 0.188235 0.333333
0.882353 0.192157 0.333333
0.109804 0.203922 0.549020
0.117647 0.200000 0.556863
0.149020 0.203922 0.552941
0.258824 0.164706 0.509804
0.490196 0.121569 0.427451
0.713725 0.145098 0.376471
0.796078 0.168627 0.349020
0.847059 0.188235 0.329412
0.874510 0.192157 0.337255
0.176471 0.317647 0.607843
0.188235 0.313725 0.639216
0.211765 0.309804 0.623529
0.286275 0.294118 0.584314
0.533333 0.274510 0.525490
0.745098 0.290196 0.466667
0.819608 0.294118 0.439216
0.874510 0.290196 0.407843
0.882353 0.270588 0.364706
0.239216 0.427451 0.686275
0.247059 0.427451 0.670588
0.286275 0.435294 0.690196
0.345098 0.458824 0.678431
0.556863 0.431373 0.623529
0.745098 0.423529 0.572549
0.815686 0.427451 0.541176
0.874510 0.411765 0.498039
0.890196 0.384314 0.454902
0.321569 0.627451 0.768627
0.333333 0.627451 0.784314
0.368627 0.635294 0.788235
0.435294 0.643137 0.768627
0.623529 0.650980 0.752941
0.776471 0.639216 0.725490
0.854902 0.623529 0.694118
0.905882 0.615686 0.666667
0.925490 0.588235 0.623529
0.388235 0.752941 0.823529
0.384314 0.741176 0.815686
0.419608 0.760784 0.835294
0.505882 0.764706 0.811765
0.662745 0.768627 0.796078
0.784314 0.776471 0.780392
0.874510 0.780392 0.772549
0.925490 0.776471 0.764706
0.945098 0.776471 0.752941
0.419608 0.800000 0.827451
0.407843 0.807843 0.827451
0.447059 0.811765 0.831373
0.521569 0.815686 0.835294
0.666667 0.847059 0.835294
0.776471 0.847059 0.800000
0.858824 0.835294 0.772549
0.925490 0.835294 0.772549
0.941176 0.843137 0.764706
0.415686 0.882353 0.874510
0.423529 0.866667 0.882353
0.447059 0.870588 0.878431
0.529412 0.890196 0.886275
0.639216 0.894118 0.862745
0.760784 0.917647 0.815686
0.858824 0.898039 0.792157
0.925490 0.905882 0.792157
0.937255 0.894118 0.784314
0.415686 0.913725 0.886275
0.423529 0.905882 0.894118
0.450980 0.909804 0.886275
0.513725 0.909804 0.878431
0.588235 0.917647 0.854902
0.709804 0.929412 0.815686
0.803922 0.925490 0.760784
0.894118 0.925490 0.772549
0.925490 0.917647 0.768627
0.121569 0.223529 0.658824
0.133333 0.223529 0.662745
0.156863 0.219608 0.654902
0.239216 0.184314 0.619608
0.450980 0.149020 0.556863
0.713725 0.152941 0.505882
0.835294 0.192157 0.462745
0.874510 0.211765 0.443137
0.886275 0.207843 0.419608
0.137255 0.247059 0.666667
0.149020 0.250980 0.682353
0.164706 0.254902 0.662745
0.262745 0.219608 0.631373
0.447059 0.152941 0.556863
0.721569 0.145098 0.494118
0.819608 0.188235 0.462745
0.866667 0.203922 0.427451
0.882353 0.207843 0.396078
0.196078 0.333333 0.725490
0.203922 0.337255 0.721569
0.223529 0.333333 0.713725
0.294118 0.333333 0.682353
0.498039 0.294118 0.619608
0.733333 0.286275 0.568627
0.839216 0.301961 0.521569
0.882353 0.301961 0.498039
0.901961 0.294118 0.466667
0.258824 0.435294 0.768627
0.274510 0.450980 0.784314
0.290196 0.450980 0.764706
0.337255 0.462745 0.756863
0.525490 0.435294 0.709804
0.733333 0.415686 0.674510
0.839216 0.431373 0.631373
0.901961 0.419608 0.603922
0.909804 0.403922 0.564706
0.333333 0.607843 0.843137
0.333333 0.623529 0.862745
0.360784 0.619608 0.847059
0.419608 0.639216 0.831373
0.603922 0.639216 0.807843
0.768627 0.623529 0.792157
0.874510 0.611765 0.772549
0.925490 0.603922 0.752941
0.929412 0.603922 0.721569
0.376471 0.752941 0.901961
0.380392 0.756863 0.905882
0.411765 0.764706 0.898039
0.486275 0.772549 0.898039
0.650980 0.776471 0.858824
0.788235 0.776471 0.850980
0.878431 0.764706 0.835294
0.929412 0.764706 0.819608
0.945098 0.764706 0.803922
0.411765 0.831373 0.909804
0.407843 0.835294 0.917647
0.447059 0.843137 0.921569
0.525490 0.854902 0.898039
0.674510 0.847059 0.890196
0.800000 0.858824 0.878431
0.878431 0.862745 0.858824
0.933333 0.862745 0.862745
0.945098 0.866667 0.862745
0.454902 0.874510 0.898039
0.458824 0.882353 0.921569
0.478431 0.878431 0.925490
0.560784 0.886275 0.909804
0.694118 0.909804 0.921569
0.796078 0.921569 0.909804
0.874510 0.921569 0.882353
0.933333 0.917647 0.870588
0.949020 0.921569 0.882353
0.454902 0.894118 0.901961
0.458824 0.886275 0.905882
0.478431 0.890196 0.905882
0.552941 0.909804 0.921569
0.690196 0.925490 0.917647
0.788235 0.945098 0.909804
0.858824 0.941176 0.874510
0.921569 0.937255 0.878431
0.941176 0.937255 0.866667
0.125490 0.223529 0.721569
0.137255 0.235294 0.729412
0.160784 0.231373 0.725490
0.215686 0.207843 0.690196
0.368627 0.164706 0.650980
0.623529 0.149020 0.603922
0.827451 0.184314 0.572549
0.898039 0.219608 0.533333
0.909804 0.235294 0.533333
0.145098 0.266667 0.721569
0.141176 0.258824 0.737255
0.172549 0.258824 0.729412
0.227451 0.227451 0.698039
0.372549 0.184314 0.647059
0.611765 0.145098 0.600000
0.811765 0.184314 0.560784
0.894118 0.219608 0.541176
0.905882 0.235294 0.533333
0.188235 0.333333 0.752941
0.207843 0.341176 0.760784
0.207843 0.345098 0.752941
0.250980 0.337255 0.737255
0.403922 0.301961 0.698039
0.647059 0.290196 0.654902
0.827451 0.286275 0.623529
0.898039 0.294118 0.580392
0.913725 0.290196 0.552941
0.235294 0.427451 0.788235
0.254902 0.427451 0.800000
0.270588 0.427451 0.800000
0.309804 0.431373 0.788235
0.443137 0.427451 0.760784
0.643137 0.396078 0.713725
0.827451 0.392157 0.694118
0.905882 0.392157 0.650980
0.921569 0.388235 0.631373
0.305882 0.564706 0.870588
0.305882 0.564706 0.870588
0.333333 0.564706 0.870588
0.384314 0.592157 0.858824
0.517647 0.588235 0.839216
0.690196 0.568627 0.800000
0.843137 0.564706 0.792157
0.925490 0.556863 0.764706
0.945098 0.560784 0.752941
0.337255 0.705882 0.917647
0.360784 0.717647 0.925490
0.392157 0.709804 0.917647
0.447059 0.725490 0.905882
0.580392 0.733333 0.894118
0.737255 0.737255 0.870588
0.854902 0.721569 0.858824
0.941176 0.721569 0.858824
0.949020 0.725490 0.850980
0.392157 0.811765 0.937255
0.396078 0.819608 0.960784
0.427451 0.819608 0.945098
0.498039 0.835294 0.941176
0.619608 0.839216 0.929412
0.752941 0.835294 0.901961
0.858824 0.843137 0.901961
0.945098 0.839216 0.898039
0.952941 0.839216 0.909804
0.427451 0.878431 0.949020
0.427451 0.874510 0.968627
0.470588 0.882353 0.956863
0.552941 0.890196 0.949020
0.670588 0.905882 0.949020
0.772549 0.917647 0.941176
0.878431 0.917647 0.921569
0.937255 0.913725 0.913725
0.964706 0.917647 0.925490
0.443137 0.886275 0.941176
0.462745 0.894118 0.945098
0.517647 0.894118 0.949020
0.592157 0.905882 0.941176
0.713725 0.921569 0.937255
0.815686 0.941176 0.937255
0.898039 0.937255 0.933333
0.933333 0.945098 0.917647
0.952941 0.937255 0.925490
0.133333 0.239216 0.752941
0.145098 0.239216 0.756863
0.160784 0.239216 0.752941
0.207843 0.227451 0.729412
0.345098 0.200000 0.713725
0.552941 0.176471 0.666667
0.776471 0.196078 0.627451
0.890196 0.219608 0.596078
0.921569 0.235294 0.600000
0.152941 0.262745 0.756863
0.145098 0.258824 0.760784
0.160784 0.250980 0.752941
0.207843 0.239216 0.737255
0.345098 0.200000 0.717647
0.541176 0.172549 0.658824
0.772549 0.200000 0.635294
0.890196 0.223529 0.603922
0.925490 0.231373 0.588235
0.203922 0.333333 0.784314
0.211765 0.341176 0.792157
0.219608 0.345098 0.772549
0.243137 0.337255 0.760784
0.372549 0.309804 0.737255
0.584314 0.282353 0.690196
0.780392 0.274510 0.666667
0.894118 0.278431 0.627451
0.917647 0.294118 0.615686
0.247059 0.423529 0.827451
0.258824 0.423529 0.823529
0.266667 0.431373 0.831373
0.290196 0.423529 0.803922
0.407843 0.419608 0.784314
0.596078 0.388235 0.749020
0.784314 0.376471 0.717647
0.905882 0.384314 0.709804
0.929412 0.388235 0.690196
0.305882 0.541176 0.886275
0.337255 0.564706 0.886275
0.333333 0.572549 0.890196
0.392157 0.572549 0.878431
0.478431 0.568627 0.843137
0.647059 0.556863 0.823529
0.796078 0.541176 0.800000
0.917647 0.545098 0.803922
0.937255 0.560784 0.800000
0.360784 0.690196 0.933333
0.368627 0.686275 0.933333
0.388235 0.698039 0.929412
0.450980 0.713725 0.917647
0.592157 0.725490 0.913725
0.725490 0.721569 0.894118
0.835294 0.713725 0.878431
0.921569 0.725490 0.874510
0.952941 0.729412 0.890196
0.392157 0.788235 0.960784
0.400000 0.788235 0.949020
0.431373 0.792157 0.952941
0.509804 0.807843 0.941176
0.631373 0.823529 0.949020
0.760784 0.831373 0.925490
0.850980 0.835294 0.925490
0.933333 0.835294 0.921569
0.952941 0.839216 0.925490
0.450980 0.878431 0.968627
0.478431 0.878431 0.964706
0.525490 0.886275 0.968627
0.588235 0.886275 0.949020
0.705882 0.898039 0.956863
0.807843 0.901961 0.949020
0.886275 0.913725 0.945098
0.945098 0.917647 0.949020
0.960784 0.917647 0.949020
0.517647 0.898039 0.964706
0.529412 0.905882 0.960784
0.576471 0.901961 0.956863
0.662745 0.913725 0.952941
0.752941 0.921569 0.949020
0.831373 0.933333 0.937255
0.905882 0.945098 0.941176
0.952941 0.945098 0.949020
0.960784 0.945098 0.941176
