Examples/DCRDemo/DCRDemo/Resources/LUTs/jade.cube
#Generated by Presets Store
#https://presetsstore.com
TITLE "Jade CCD"
LUT_3D_SIZE 25
0.047059 0.062745 0.066667
0.054902 0.058824 0.066667
0.070588 0.062745 0.066667
0.105882 0.070588 0.074510
0.145098 0.082353 0.082353
0.192157 0.094118 0.078431
0.250980 0.105882 0.082353
0.305882 0.113725 0.086275
0.380392 0.129412 0.094118
0.447059 0.145098 0.105882
0.501961 0.156863 0.109804
0.549020 0.168627 0.105882
0.611765 0.180392 0.113725
0.666667 0.196078 0.129412
0.713725 0.207843 0.125490
0.764706 0.219608 0.137255
0.807843 0.223529 0.137255
0.843137 0.231373 0.141176
0.878431 0.243137 0.145098
0.894118 0.243137 0.141176
0.909804 0.250980 0.145098
0.929412 0.266667 0.152941
0.937255 0.266667 0.149020
0.929412 0.274510 0.149020
0.898039 0.254902 0.149020
0.019608 0.043137 0.035294
0.019608 0.035294 0.047059
0.039216 0.039216 0.047059
0.062745 0.039216 0.047059
0.117647 0.062745 0.058824
0.156863 0.062745 0.054902
0.219608 0.082353 0.058824
0.278431 0.086275 0.058824
0.345098 0.109804 0.066667
0.427451 0.129412 0.078431
0.490196 0.141176 0.086275
0.556863 0.152941 0.086275
0.623529 0.172549 0.098039
0.682353 0.184314 0.109804
0.729412 0.196078 0.109804
0.776471 0.207843 0.125490
0.819608 0.211765 0.125490
0.854902 0.227451 0.133333
0.886275 0.235294 0.133333
0.913725 0.247059 0.145098
0.925490 0.254902 0.145098
0.937255 0.258824 0.141176
0.949020 0.262745 0.141176
0.933333 0.262745 0.145098
0.898039 0.250980 0.133333
0.011765 0.035294 0.035294
0.011765 0.027451 0.031373
0.023529 0.027451 0.043137
0.039216 0.031373 0.035294
0.082353 0.043137 0.035294
0.137255 0.062745 0.039216
0.200000 0.070588 0.043137
0.262745 0.078431 0.054902
0.333333 0.098039 0.058824
0.415686 0.117647 0.066667
0.478431 0.129412 0.066667
0.545098 0.149020 0.078431
0.619608 0.168627 0.094118
0.678431 0.180392 0.105882
0.729412 0.196078 0.109804
0.776471 0.203922 0.113725
0.827451 0.215686 0.117647
0.858824 0.223529 0.125490
0.894118 0.235294 0.133333
0.913725 0.243137 0.133333
0.933333 0.254902 0.137255
0.952941 0.254902 0.145098
0.964706 0.258824 0.152941
0.949020 0.266667 0.133333
0.909804 0.250980 0.137255
0.019608 0.043137 0.035294
0.015686 0.039216 0.031373
0.027451 0.043137 0.047059
0.039216 0.031373 0.035294
0.078431 0.047059 0.035294
0.129412 0.058824 0.043137
0.188235 0.082353 0.054902
0.258824 0.090196 0.062745
0.325490 0.101961 0.058824
0.403922 0.121569 0.066667
0.474510 0.137255 0.078431
0.545098 0.156863 0.082353
0.603922 0.168627 0.094118
0.666667 0.188235 0.105882
0.725490 0.196078 0.117647
0.776471 0.211765 0.117647
0.811765 0.223529 0.117647
0.854902 0.235294 0.129412
0.882353 0.239216 0.133333
0.905882 0.247059 0.133333
0.933333 0.254902 0.137255
0.949020 0.266667 0.133333
0.956863 0.274510 0.141176
0.945098 0.278431 0.141176
0.901961 0.262745 0.141176
0.031373 0.074510 0.043137
0.031373 0.074510 0.050980
0.035294 0.070588 0.050980
0.043137 0.066667 0.058824
0.062745 0.066667 0.043137
0.109804 0.082353 0.050980
0.164706 0.086275 0.050980
0.231373 0.105882 0.054902
0.305882 0.117647 0.062745
0.376471 0.137255 0.066667
0.443137 0.149020 0.066667
0.521569 0.164706 0.082353
0.588235 0.188235 0.090196
0.647059 0.200000 0.098039
0.705882 0.215686 0.105882
0.756863 0.227451 0.113725
0.803922 0.243137 0.125490
0.839216 0.247059 0.125490
0.874510 0.258824 0.137255
0.905882 0.266667 0.145098
0.925490 0.270588 0.137255
0.937255 0.278431 0.137255
0.949020 0.290196 0.145098
0.941176 0.286275 0.145098
0.898039 0.286275 0.129412
0.035294 0.117647 0.058824
0.039216 0.109804 0.062745
0.043137 0.113725 0.066667
0.054902 0.109804 0.058824
0.074510 0.105882 0.054902
0.109804 0.101961 0.050980
0.160784 0.113725 0.050980
0.215686 0.125490 0.062745
0.290196 0.149020 0.062745
0.352941 0.152941 0.070588
0.427451 0.176471 0.078431
0.501961 0.188235 0.090196
0.572549 0.203922 0.101961
0.631373 0.219608 0.105882
0.694118 0.235294 0.105882
0.745098 0.247059 0.117647
0.788235 0.258824 0.133333
0.835294 0.270588 0.137255
0.862745 0.274510 0.137255
0.894118 0.290196 0.149020
0.917647 0.298039 0.145098
0.929412 0.305882 0.149020
0.949020 0.309804 0.149020
0.933333 0.309804 0.145098
0.886275 0.309804 0.141176
0.062745 0.152941 0.074510
0.066667 0.164706 0.082353
0.054902 0.164706 0.078431
0.066667 0.156863 0.086275
0.078431 0.145098 0.070588
0.117647 0.152941 0.086275
0.152941 0.141176 0.074510
0.207843 0.149020 0.066667
0.266667 0.164706 0.066667
0.341176 0.184314 0.082353
0.403922 0.192157 0.082353
0.474510 0.211765 0.098039
0.541176 0.223529 0.105882
0.611765 0.239216 0.113725
0.682353 0.262745 0.121569
0.721569 0.278431 0.113725
0.772549 0.290196 0.129412
0.815686 0.301961 0.137255
0.850980 0.305882 0.137255
0.886275 0.317647 0.141176
0.909804 0.329412 0.149020
0.929412 0.341176 0.145098
0.949020 0.345098 0.149020
0.929412 0.341176 0.145098
0.890196 0.333333 0.145098
0.066667 0.203922 0.086275
0.074510 0.207843 0.109804
0.066667 0.211765 0.090196
0.066667 0.196078 0.090196
0.094118 0.188235 0.094118
0.121569 0.180392 0.090196
0.160784 0.184314 0.082353
0.203922 0.184314 0.070588
0.258824 0.192157 0.074510
0.329412 0.207843 0.086275
0.400000 0.223529 0.094118
0.462745 0.235294 0.090196
0.529412 0.247059 0.098039
0.596078 0.262745 0.117647
0.666667 0.286275 0.121569
0.721569 0.301961 0.129412
0.776471 0.317647 0.145098
0.807843 0.329412 0.145098
0.843137 0.333333 0.141176
0.878431 0.345098 0.149020
0.905882 0.356863 0.149020
0.929412 0.364706 0.160784
0.941176 0.380392 0.152941
0.929412 0.376471 0.164706
0.886275 0.372549 0.152941
0.082353 0.243137 0.117647
0.078431 0.254902 0.101961
0.082353 0.254902 0.113725
0.090196 0.247059 0.113725
0.105882 0.239216 0.109804
0.133333 0.231373 0.105882
0.168627 0.235294 0.101961
0.196078 0.227451 0.082353
0.243137 0.227451 0.082353
0.317647 0.239216 0.094118
0.384314 0.254902 0.094118
0.458824 0.266667 0.105882
0.525490 0.278431 0.109804
0.584314 0.301961 0.113725
0.650980 0.313725 0.129412
0.709804 0.329412 0.129412
0.760784 0.345098 0.141176
0.803922 0.356863 0.145098
0.835294 0.360784 0.145098
0.878431 0.372549 0.149020
0.905882 0.384314 0.160784
0.921569 0.392157 0.172549
0.941176 0.407843 0.172549
0.925490 0.403922 0.172549
0.890196 0.403922 0.160784
0.090196 0.290196 0.129412
0.098039 0.298039 0.129412
0.105882 0.294118 0.137255
0.113725 0.298039 0.133333
0.129412 0.290196 0.117647
0.145098 0.282353 0.117647
0.172549 0.270588 0.113725
0.207843 0.274510 0.109804
0.247059 0.274510 0.109804
0.294118 0.278431 0.101961
0.360784 0.290196 0.101961
0.443137 0.301961 0.113725
0.509804 0.321569 0.129412
0.568627 0.333333 0.137255
0.631373 0.345098 0.137255
0.678431 0.356863 0.137255
0.737255 0.364706 0.137255
0.780392 0.376471 0.145098
0.819608 0.388235 0.149020
0.858824 0.407843 0.160784
0.890196 0.419608 0.172549
0.909804 0.431373 0.176471
0.929412 0.447059 0.184314
0.925490 0.443137 0.180392
0.882353 0.439216 0.172549
0.117647 0.345098 0.156863
0.117647 0.345098 0.156863
0.117647 0.349020 0.160784
0.125490 0.352941 0.156863
0.137255 0.341176 0.149020
0.149020 0.329412 0.145098
0.180392 0.321569 0.133333
0.223529 0.317647 0.129412
0.266667 0.321569 0.121569
0.305882 0.313725 0.117647
0.360784 0.317647 0.105882
0.427451 0.329412 0.109804
0.498039 0.345098 0.121569
0.556863 0.360784 0.129412
0.615686 0.380392 0.137255
0.670588 0.396078 0.152941
0.725490 0.400000 0.141176
0.780392 0.415686 0.152941
0.811765 0.423529 0.156863
0.843137 0.439216 0.168627
0.874510 0.454902 0.172549
0.898039 0.462745 0.180392
0.921569 0.474510 0.188235
0.917647 0.478431 0.188235
0.878431 0.470588 0.184314
0.125490 0.396078 0.172549
0.125490 0.400000 0.164706
0.125490 0.403922 0.168627
0.137255 0.403922 0.180392
0.149020 0.400000 0.164706
0.172549 0.388235 0.164706
0.203922 0.380392 0.156863
0.219608 0.372549 0.149020
0.262745 0.372549 0.141176
0.309804 0.364706 0.133333
0.364706 0.360784 0.137255
0.419608 0.360784 0.129412
0.478431 0.376471 0.137255
0.537255 0.388235 0.141176
0.603922 0.411765 0.149020
0.662745 0.427451 0.152941
0.713725 0.439216 0.164706
0.756863 0.450980 0.168627
0.796078 0.458824 0.172549
0.835294 0.466667 0.176471
0.870588 0.490196 0.188235
0.898039 0.501961 0.196078
0.921569 0.505882 0.200000
0.913725 0.513725 0.192157
0.882353 0.501961 0.192157
0.145098 0.454902 0.196078
0.141176 0.454902 0.184314
0.141176 0.458824 0.196078
0.149020 0.462745 0.192157
0.164706 0.450980 0.180392
0.184314 0.447059 0.184314
0.203922 0.435294 0.168627
0.235294 0.427451 0.168627
0.278431 0.423529 0.160784
0.309804 0.415686 0.152941
0.360784 0.411765 0.141176
0.415686 0.415686 0.141176
0.478431 0.411765 0.137255
0.533333 0.419608 0.145098
0.596078 0.443137 0.149020
0.647059 0.454902 0.156863
0.709804 0.466667 0.164706
0.749020 0.478431 0.172549
0.792157 0.490196 0.176471
0.831373 0.509804 0.188235
0.866667 0.517647 0.188235
0.886275 0.525490 0.192157
0.909804 0.533333 0.192157
0.909804 0.541176 0.200000
0.886275 0.537255 0.207843
0.164706 0.501961 0.215686
0.164706 0.501961 0.215686
0.156863 0.501961 0.203922
0.168627 0.505882 0.211765
0.176471 0.505882 0.203922
0.196078 0.494118 0.200000
0.223529 0.490196 0.196078
0.247059 0.474510 0.184314
0.278431 0.466667 0.176471
0.329412 0.458824 0.180392
0.364706 0.450980 0.164706
0.415686 0.447059 0.152941
0.462745 0.450980 0.149020
0.525490 0.458824 0.152941
0.592157 0.466667 0.164706
0.647059 0.486275 0.164706
0.686275 0.498039 0.168627
0.737255 0.509804 0.180392
0.780392 0.521569 0.184314
0.819608 0.541176 0.196078
0.847059 0.549020 0.203922
0.878431 0.560784 0.203922
0.898039 0.572549 0.211765
0.901961 0.576471 0.207843
0.878431 0.576471 0.223529
0.172549 0.560784 0.207843
0.180392 0.552941 0.223529
0.184314 0.560784 0.219608
0.180392 0.552941 0.223529
0.180392 0.552941 0.223529
0.200000 0.549020 0.227451
0.235294 0.537255 0.223529
0.262745 0.533333 0.207843
0.294118 0.521569 0.192157
0.337255 0.513725 0.196078
0.372549 0.501961 0.184314
0.419608 0.494118 0.184314
0.466667 0.498039 0.164706
0.521569 0.498039 0.168627
0.572549 0.501961 0.164706
0.631373 0.513725 0.168627
0.678431 0.533333 0.176471
0.733333 0.541176 0.180392
0.764706 0.556863 0.188235
0.807843 0.568627 0.203922
0.839216 0.580392 0.203922
0.866667 0.592157 0.207843
0.894118 0.603922 0.223529
0.898039 0.607843 0.227451
0.874510 0.607843 0.227451
0.192157 0.596078 0.247059
0.196078 0.600000 0.243137
0.192157 0.607843 0.247059
0.192157 0.611765 0.243137
0.196078 0.600000 0.239216
0.215686 0.592157 0.239216
0.231373 0.580392 0.227451
0.262745 0.572549 0.223529
0.298039 0.572549 0.223529
0.337255 0.568627 0.215686
0.372549 0.552941 0.200000
0.415686 0.545098 0.188235
0.474510 0.537255 0.188235
0.521569 0.533333 0.184314
0.576471 0.533333 0.180392
0.635294 0.541176 0.188235
0.686275 0.556863 0.184314
0.729412 0.572549 0.196078
0.772549 0.584314 0.200000
0.803922 0.592157 0.207843
0.839216 0.607843 0.215686
0.866667 0.615686 0.223529
0.898039 0.627451 0.231373
0.898039 0.631373 0.235294
0.878431 0.635294 0.247059
0.196078 0.635294 0.243137
0.200000 0.639216 0.254902
0.203922 0.643137 0.258824
0.207843 0.647059 0.247059
0.211765 0.643137 0.254902
0.227451 0.643137 0.258824
0.247059 0.627451 0.247059
0.278431 0.619608 0.247059
0.313725 0.611765 0.227451
0.352941 0.611765 0.227451
0.380392 0.600000 0.219608
0.427451 0.592157 0.207843
0.470588 0.576471 0.196078
0.529412 0.572549 0.196078
0.576471 0.564706 0.184314
0.623529 0.568627 0.180392
0.670588 0.584314 0.196078
0.717647 0.592157 0.196078
0.752941 0.607843 0.200000
0.796078 0.619608 0.215686
0.835294 0.635294 0.223529
0.858824 0.647059 0.231373
0.882353 0.654902 0.235294
0.874510 0.662745 0.235294
0.874510 0.666667 0.266667
0.200000 0.674510 0.258824
0.223529 0.682353 0.274510
0.207843 0.674510 0.274510
0.215686 0.690196 0.278431
0.219608 0.690196 0.274510
0.231373 0.686275 0.266667
0.254902 0.670588 0.274510
0.290196 0.662745 0.270588
0.321569 0.654902 0.258824
0.349020 0.643137 0.247059
0.396078 0.643137 0.235294
0.447059 0.635294 0.235294
0.482353 0.619608 0.211765
0.529412 0.611765 0.207843
0.580392 0.607843 0.203922
0.615686 0.603922 0.200000
0.658824 0.607843 0.196078
0.705882 0.615686 0.200000
0.752941 0.631373 0.207843
0.792157 0.643137 0.215686
0.823529 0.658824 0.219608
0.850980 0.662745 0.227451
0.878431 0.678431 0.258824
0.882353 0.682353 0.254902
0.866667 0.678431 0.278431
0.219608 0.713725 0.290196
0.219608 0.713725 0.290196
0.219608 0.721569 0.278431
0.211765 0.713725 0.270588
0.231373 0.717647 0.286275
0.247059 0.717647 0.286275
0.270588 0.709804 0.278431
0.298039 0.701961 0.274510
0.333333 0.701961 0.270588
0.368627 0.690196 0.266667
0.411765 0.682353 0.254902
0.450980 0.670588 0.235294
0.501961 0.654902 0.227451
0.541176 0.647059 0.243137
0.592157 0.643137 0.231373
0.627451 0.635294 0.215686
0.658824 0.635294 0.203922
0.701961 0.635294 0.211765
0.737255 0.643137 0.211765
0.780392 0.654902 0.219608
0.811765 0.670588 0.231373
0.843137 0.686275 0.239216
0.878431 0.698039 0.262745
0.890196 0.705882 0.258824
0.874510 0.705882 0.262745
0.235294 0.749020 0.309804
0.231373 0.745098 0.298039
0.227451 0.749020 0.290196
0.235294 0.752941 0.313725
0.250980 0.756863 0.290196
0.254902 0.752941 0.294118
0.274510 0.749020 0.298039
0.298039 0.749020 0.290196
0.341176 0.737255 0.274510
0.388235 0.729412 0.270588
0.419608 0.725490 0.258824
0.462745 0.709804 0.258824
0.505882 0.698039 0.239216
0.545098 0.690196 0.235294
0.596078 0.674510 0.223529
0.631373 0.670588 0.219608
0.674510 0.662745 0.219608
0.698039 0.670588 0.223529
0.741176 0.670588 0.231373
0.772549 0.682353 0.235294
0.800000 0.694118 0.235294
0.831373 0.701961 0.247059
0.870588 0.717647 0.258824
0.890196 0.721569 0.270588
0.870588 0.725490 0.274510
0.247059 0.788235 0.309804
0.247059 0.788235 0.309804
0.243137 0.792157 0.309804
0.243137 0.792157 0.309804
0.250980 0.792157 0.313725
0.270588 0.796078 0.321569
0.286275 0.788235 0.313725
0.317647 0.780392 0.309804
0.356863 0.772549 0.294118
0.392157 0.768627 0.286275
0.439216 0.756863 0.282353
0.474510 0.749020 0.270588
0.521569 0.737255 0.266667
0.560784 0.733333 0.258824
0.603922 0.717647 0.250980
0.639216 0.709804 0.239216
0.674510 0.709804 0.250980
0.701961 0.698039 0.235294
0.737255 0.701961 0.235294
0.772549 0.705882 0.243137
0.800000 0.713725 0.247059
0.831373 0.717647 0.247059
0.866667 0.729412 0.266667
0.870588 0.745098 0.278431
0.874510 0.749020 0.282353
0.262745 0.823529 0.337255
0.258824 0.819608 0.333333
0.254902 0.819608 0.333333
0.258824 0.827451 0.321569
0.266667 0.835294 0.337255
0.266667 0.827451 0.325490
0.294118 0.819608 0.329412
0.321569 0.815686 0.333333
0.352941 0.807843 0.317647
0.396078 0.796078 0.298039
0.439216 0.796078 0.298039
0.482353 0.776471 0.278431
0.541176 0.776471 0.290196
0.580392 0.760784 0.274510
0.623529 0.749020 0.266667
0.647059 0.741176 0.262745
0.682353 0.737255 0.254902
0.709804 0.733333 0.247059
0.737255 0.729412 0.247059
0.772549 0.725490 0.247059
0.803922 0.729412 0.254902
0.827451 0.741176 0.262745
0.858824 0.756863 0.274510
0.878431 0.760784 0.282353
0.870588 0.768627 0.286275
0.266667 0.858824 0.345098
0.274510 0.862745 0.341176
0.274510 0.870588 0.341176
0.270588 0.866667 0.341176
0.278431 0.866667 0.345098
0.294118 0.862745 0.349020
0.301961 0.866667 0.349020
0.333333 0.858824 0.337255
0.372549 0.850980 0.325490
0.407843 0.839216 0.317647
0.454902 0.827451 0.317647
0.498039 0.815686 0.309804
0.545098 0.807843 0.301961
0.588235 0.803922 0.305882
0.631373 0.792157 0.282353
0.666667 0.780392 0.278431
0.701961 0.776471 0.274510
0.729412 0.768627 0.278431
0.760784 0.760784 0.282353
0.780392 0.756863 0.278431
0.803922 0.756863 0.278431
0.823529 0.760784 0.286275
0.862745 0.768627 0.290196
0.874510 0.780392 0.286275
0.870588 0.796078 0.294118
0.282353 0.886275 0.360784
0.286275 0.894118 0.352941
0.278431 0.890196 0.360784
0.290196 0.898039 0.364706
0.301961 0.890196 0.364706
0.286275 0.890196 0.364706
0.317647 0.890196 0.360784
0.349020 0.882353 0.349020
0.384314 0.878431 0.349020
0.423529 0.866667 0.341176
0.462745 0.858824 0.341176
0.509804 0.850980 0.337255
0.552941 0.839216 0.325490
0.600000 0.823529 0.309804
0.643137 0.823529 0.305882
0.682353 0.811765 0.298039
0.709804 0.811765 0.290196
0.737255 0.803922 0.294118
0.760784 0.796078 0.298039
0.784314 0.792157 0.294118
0.807843 0.792157 0.298039
0.827451 0.784314 0.298039
0.850980 0.792157 0.301961
0.874510 0.803922 0.317647
0.862745 0.800000 0.321569
0.298039 0.917647 0.372549
0.305882 0.921569 0.376471
0.301961 0.917647 0.372549
0.309804 0.917647 0.376471
0.301961 0.921569 0.376471
0.309804 0.921569 0.388235
0.325490 0.913725 0.388235
0.345098 0.913725 0.376471
0.388235 0.901961 0.360784
0.435294 0.890196 0.352941
0.470588 0.890196 0.349020
0.513725 0.882353 0.341176
0.568627 0.866667 0.341176
0.615686 0.854902 0.345098
0.650980 0.850980 0.337255
0.694118 0.839216 0.325490
0.717647 0.839216 0.329412
0.752941 0.827451 0.325490
0.768627 0.827451 0.321569
0.788235 0.823529 0.317647
0.811765 0.811765 0.325490
0.827451 0.811765 0.321569
0.854902 0.815686 0.329412
0.874510 0.819608 0.337255
0.858824 0.827451 0.341176
0.035294 0.058824 0.058824
0.050980 0.054902 0.062745
0.062745 0.054902 0.066667
0.098039 0.058824 0.062745
0.145098 0.066667 0.070588
0.203922 0.082353 0.074510
0.262745 0.094118 0.070588
0.313725 0.109804 0.066667
0.392157 0.117647 0.070588
0.458824 0.137255 0.090196
0.521569 0.156863 0.098039
0.580392 0.164706 0.101961
0.631373 0.172549 0.105882
0.682353 0.184314 0.117647
0.737255 0.200000 0.125490
0.780392 0.203922 0.125490
0.827451 0.219608 0.133333
0.858824 0.223529 0.133333
0.882353 0.231373 0.129412
0.913725 0.247059 0.145098
0.925490 0.254902 0.145098
0.933333 0.254902 0.137255
0.949020 0.262745 0.141176
0.941176 0.262745 0.137255
0.882353 0.254902 0.121569
0.019608 0.043137 0.035294
0.027451 0.039216 0.066667
0.047059 0.047059 0.054902
0.074510 0.043137 0.031373
0.125490 0.066667 0.054902
0.184314 0.074510 0.062745
0.239216 0.090196 0.054902
0.301961 0.094118 0.062745
0.368627 0.109804 0.062745
0.447059 0.137255 0.086275
0.517647 0.141176 0.086275
0.584314 0.164706 0.101961
0.631373 0.172549 0.101961
0.690196 0.192157 0.125490
0.737255 0.207843 0.129412
0.784314 0.211765 0.121569
0.831373 0.219608 0.129412
0.866667 0.231373 0.141176
0.890196 0.239216 0.137255
0.917647 0.247059 0.145098
0.933333 0.250980 0.145098
0.941176 0.254902 0.141176
0.956863 0.258824 0.141176
0.929412 0.258824 0.141176
0.901961 0.254902 0.129412
0.007843 0.031373 0.031373
0.023529 0.039216 0.050980
0.023529 0.027451 0.035294
0.058824 0.039216 0.054902
0.094118 0.050980 0.035294
0.149020 0.070588 0.043137
0.227451 0.082353 0.058824
0.278431 0.086275 0.058824
0.345098 0.101961 0.058824
0.423529 0.125490 0.074510
0.490196 0.141176 0.078431
0.556863 0.152941 0.086275
0.631373 0.172549 0.101961
0.694118 0.180392 0.109804
0.741176 0.196078 0.113725
0.788235 0.203922 0.109804
0.831373 0.219608 0.121569
0.862745 0.227451 0.129412
0.894118 0.235294 0.133333
0.913725 0.250980 0.137255
0.937255 0.258824 0.141176
0.956863 0.258824 0.141176
0.960784 0.262745 0.152941
0.937255 0.258824 0.125490
0.901961 0.254902 0.129412
0.023529 0.039216 0.043137
0.027451 0.050980 0.050980
0.027451 0.050980 0.050980
0.035294 0.043137 0.023529
0.074510 0.058824 0.054902
0.141176 0.074510 0.047059
0.196078 0.082353 0.050980
0.262745 0.094118 0.058824
0.329412 0.101961 0.054902
0.403922 0.113725 0.062745
0.478431 0.137255 0.070588
0.549020 0.152941 0.082353
0.611765 0.168627 0.098039
0.674510 0.184314 0.105882
0.729412 0.192157 0.117647
0.784314 0.211765 0.121569
0.819608 0.227451 0.121569
0.858824 0.231373 0.129412
0.890196 0.239216 0.137255
0.921569 0.250980 0.141176
0.941176 0.254902 0.141176
0.937255 0.270588 0.141176
0.949020 0.270588 0.137255
0.937255 0.274510 0.145098
0.901961 0.262745 0.125490
0.027451 0.070588 0.047059
0.039216 0.082353 0.050980
0.043137 0.086275 0.054902
0.047059 0.082353 0.062745
0.078431 0.078431 0.039216
0.121569 0.086275 0.050980
0.184314 0.098039 0.054902
0.243137 0.117647 0.058824
0.317647 0.133333 0.062745
0.396078 0.149020 0.078431
0.462745 0.164706 0.074510
0.529412 0.168627 0.086275
0.603922 0.196078 0.098039
0.658824 0.207843 0.101961
0.725490 0.215686 0.113725
0.764706 0.235294 0.117647
0.815686 0.235294 0.117647
0.843137 0.254902 0.125490
0.886275 0.266667 0.129412
0.913725 0.274510 0.137255
0.933333 0.278431 0.145098
0.941176 0.286275 0.145098
0.949020 0.298039 0.149020
0.937255 0.294118 0.145098
0.894118 0.294118 0.133333
0.027451 0.113725 0.062745
0.039216 0.117647 0.070588
0.050980 0.121569 0.074510
0.066667 0.121569 0.070588
0.078431 0.109804 0.058824
0.117647 0.109804 0.058824
0.164706 0.121569 0.050980
0.223529 0.133333 0.062745
0.294118 0.152941 0.058824
0.364706 0.168627 0.078431
0.435294 0.176471 0.074510
0.505882 0.192157 0.086275
0.584314 0.211765 0.101961
0.647059 0.223529 0.109804
0.701961 0.243137 0.113725
0.756863 0.250980 0.125490
0.796078 0.258824 0.125490
0.839216 0.274510 0.137255
0.870588 0.282353 0.137255
0.905882 0.294118 0.145098
0.921569 0.305882 0.145098
0.933333 0.309804 0.145098
0.952941 0.321569 0.149020
0.941176 0.321569 0.145098
0.898039 0.313725 0.149020
0.062745 0.152941 0.074510
0.054902 0.164706 0.074510
0.062745 0.168627 0.094118
0.066667 0.160784 0.098039
0.086275 0.160784 0.082353
0.121569 0.156863 0.082353
0.164706 0.156863 0.074510
0.215686 0.156863 0.066667
0.274510 0.172549 0.066667
0.345098 0.192157 0.078431
0.419608 0.211765 0.090196
0.490196 0.219608 0.090196
0.556863 0.231373 0.098039
0.615686 0.247059 0.105882
0.682353 0.266667 0.113725
0.733333 0.278431 0.117647
0.784314 0.290196 0.133333
0.823529 0.301961 0.141176
0.854902 0.309804 0.141176
0.890196 0.321569 0.149020
0.909804 0.329412 0.149020
0.929412 0.337255 0.152941
0.941176 0.345098 0.152941
0.925490 0.349020 0.149020
0.894118 0.345098 0.152941
0.066667 0.203922 0.086275
0.070588 0.211765 0.109804
0.074510 0.219608 0.090196
0.078431 0.207843 0.101961
0.109804 0.196078 0.105882
0.141176 0.196078 0.105882
0.160784 0.196078 0.090196
0.211765 0.196078 0.090196
0.266667 0.200000 0.082353
0.329412 0.215686 0.090196
0.400000 0.231373 0.094118
0.470588 0.250980 0.105882
0.545098 0.262745 0.105882
0.600000 0.274510 0.109804
0.670588 0.290196 0.121569
0.721569 0.301961 0.129412
0.772549 0.317647 0.133333
0.811765 0.321569 0.133333
0.850980 0.333333 0.141176
0.882353 0.349020 0.145098
0.913725 0.360784 0.152941
0.937255 0.368627 0.160784
0.941176 0.380392 0.152941
0.929412 0.376471 0.164706
0.890196 0.376471 0.164706
0.086275 0.247059 0.121569
0.086275 0.262745 0.109804
0.086275 0.258824 0.117647
0.101961 0.258824 0.121569
0.113725 0.254902 0.105882
0.137255 0.235294 0.109804
0.172549 0.239216 0.105882
0.207843 0.239216 0.094118
0.254902 0.239216 0.090196
0.321569 0.250980 0.094118
0.392157 0.270588 0.098039
0.462745 0.278431 0.105882
0.533333 0.294118 0.117647
0.588235 0.305882 0.117647
0.650980 0.313725 0.121569
0.709804 0.333333 0.133333
0.760784 0.352941 0.137255
0.803922 0.360784 0.141176
0.839216 0.364706 0.149020
0.874510 0.380392 0.152941
0.905882 0.396078 0.160784
0.921569 0.392157 0.172549
0.941176 0.407843 0.180392
0.925490 0.419608 0.164706
0.890196 0.411765 0.156863
0.098039 0.301961 0.149020
0.101961 0.309804 0.145098
0.101961 0.309804 0.129412
0.109804 0.313725 0.133333
0.137255 0.305882 0.137255
0.149020 0.294118 0.125490
0.180392 0.278431 0.121569
0.215686 0.282353 0.109804
0.254902 0.282353 0.109804
0.309804 0.282353 0.101961
0.376471 0.298039 0.101961
0.454902 0.305882 0.113725
0.513725 0.329412 0.125490
0.576471 0.333333 0.133333
0.635294 0.349020 0.133333
0.698039 0.364706 0.141176
0.745098 0.380392 0.149020
0.788235 0.388235 0.145098
0.823529 0.400000 0.149020
0.862745 0.411765 0.164706
0.890196 0.423529 0.164706
0.913725 0.435294 0.172549
0.925490 0.450980 0.180392
0.925490 0.447059 0.184314
0.882353 0.447059 0.176471
0.121569 0.356863 0.156863
0.125490 0.360784 0.156863
0.121569 0.368627 0.160784
0.125490 0.372549 0.156863
0.133333 0.356863 0.149020
0.156863 0.345098 0.149020
0.184314 0.333333 0.141176
0.219608 0.321569 0.133333
0.266667 0.321569 0.121569
0.309804 0.317647 0.121569
