Examples/DCRDemo/DCRDemo/Resources/LUTs/jade.cube
#Generated by Presets Store
#https://presetsstore.com
TITLE "Jade CCD"
LUT_3D_SIZE 9
0.047059 0.062745 0.066667
0.105882 0.070588 0.074510
0.250980 0.105882 0.082353
0.447059 0.145098 0.105882
0.611765 0.180392 0.113725
0.764706 0.219608 0.137255
0.878431 0.243137 0.145098
0.929412 0.266667 0.152941
0.898039 0.254902 0.149020
0.019608 0.043137 0.035294
0.039216 0.031373 0.035294
0.188235 0.082353 0.054902
0.403922 0.121569 0.066667
0.603922 0.168627 0.094118
0.776471 0.211765 0.117647
0.882353 0.239216 0.133333
0.949020 0.266667 0.133333
0.901961 0.262745 0.141176
0.062745 0.152941 0.074510
0.066667 0.156863 0.086275
0.152941 0.141176 0.074510
0.341176 0.184314 0.082353
0.541176 0.223529 0.105882
0.721569 0.278431 0.113725
0.850980 0.305882 0.137255
0.929412 0.341176 0.145098
0.890196 0.333333 0.145098
0.090196 0.290196 0.129412
0.113725 0.298039 0.133333
0.172549 0.270588 0.113725
0.294118 0.278431 0.101961
0.509804 0.321569 0.129412
0.678431 0.356863 0.137255
0.819608 0.388235 0.149020
0.909804 0.431373 0.176471
0.882353 0.439216 0.172549
0.145098 0.454902 0.196078
0.149020 0.462745 0.192157
0.203922 0.435294 0.168627
0.309804 0.415686 0.152941
0.478431 0.411765 0.137255
0.647059 0.454902 0.156863
0.792157 0.490196 0.176471
0.886275 0.525490 0.192157
0.886275 0.537255 0.207843
0.192157 0.596078 0.247059
0.192157 0.611765 0.243137
0.231373 0.580392 0.227451
0.337255 0.568627 0.215686
0.474510 0.537255 0.188235
0.635294 0.541176 0.188235
0.772549 0.584314 0.200000
0.866667 0.615686 0.223529
0.878431 0.635294 0.247059
0.219608 0.713725 0.290196
0.211765 0.713725 0.270588
0.270588 0.709804 0.278431
0.368627 0.690196 0.266667
0.501961 0.654902 0.227451
0.627451 0.635294 0.215686
0.737255 0.643137 0.211765
0.843137 0.686275 0.239216
0.874510 0.705882 0.262745
0.262745 0.823529 0.337255
0.258824 0.827451 0.321569
0.294118 0.819608 0.329412
0.396078 0.796078 0.298039
0.541176 0.776471 0.290196
0.647059 0.741176 0.262745
0.737255 0.729412 0.247059
0.827451 0.741176 0.262745
0.870588 0.768627 0.286275
0.298039 0.917647 0.372549
0.309804 0.917647 0.376471
0.325490 0.913725 0.388235
0.435294 0.890196 0.352941
0.568627 0.866667 0.341176
0.694118 0.839216 0.325490
0.768627 0.827451 0.321569
0.827451 0.811765 0.321569
0.858824 0.827451 0.341176
0.019608 0.039216 0.062745
0.078431 0.050980 0.078431
0.258824 0.082353 0.070588
0.470588 0.129412 0.090196
0.650980 0.168627 0.105882
0.815686 0.211765 0.117647
0.909804 0.239216 0.137255
0.952941 0.254902 0.137255
0.905882 0.247059 0.141176
0.027451 0.047059 0.058824
0.050980 0.066667 0.078431
0.219608 0.090196 0.070588
0.431373 0.133333 0.078431
0.647059 0.176471 0.109804
0.796078 0.211765 0.117647
0.894118 0.247059 0.137255
0.952941 0.266667 0.160784
0.901961 0.258824 0.149020
0.054902 0.168627 0.098039
0.086275 0.200000 0.121569
0.180392 0.176471 0.098039
0.376471 0.223529 0.101961
0.584314 0.254902 0.121569
0.749020 0.286275 0.129412
0.862745 0.317647 0.149020
0.933333 0.341176 0.156863
0.898039 0.349020 0.156863
0.105882 0.313725 0.149020
0.121569 0.349020 0.160784
0.192157 0.313725 0.141176
0.317647 0.301961 0.117647
0.525490 0.345098 0.141176
0.701961 0.380392 0.152941
0.835294 0.411765 0.156863
0.905882 0.439216 0.172549
0.894118 0.447059 0.172549
0.152941 0.470588 0.200000
0.160784 0.486275 0.203922
0.227451 0.458824 0.192157
0.337255 0.439216 0.160784
0.501961 0.435294 0.160784
0.654902 0.470588 0.164706
0.800000 0.517647 0.196078
0.890196 0.537255 0.200000
0.890196 0.552941 0.227451
0.188235 0.623529 0.250980
0.196078 0.627451 0.247059
0.250980 0.607843 0.235294
0.349020 0.580392 0.219608
0.490196 0.556863 0.188235
0.639216 0.552941 0.164706
0.772549 0.603922 0.203922
0.862745 0.635294 0.215686
0.878431 0.654902 0.250980
0.219608 0.737255 0.298039
0.223529 0.737255 0.290196
0.270588 0.729412 0.278431
0.384314 0.698039 0.254902
0.521569 0.678431 0.239216
0.643137 0.650980 0.219608
0.749020 0.658824 0.219608
0.858824 0.698039 0.250980
0.874510 0.721569 0.262745
0.266667 0.862745 0.337255
0.270588 0.858824 0.337255
0.301961 0.854902 0.341176
0.411765 0.823529 0.317647
0.556863 0.796078 0.290196
0.674510 0.756863 0.282353
0.760784 0.741176 0.270588
0.831373 0.745098 0.266667
0.878431 0.784314 0.298039
0.325490 0.937255 0.403922
0.321569 0.933333 0.400000
0.356863 0.937255 0.396078
0.462745 0.905882 0.380392
0.592157 0.878431 0.356863
0.709804 0.854902 0.337255
0.784314 0.827451 0.325490
0.839216 0.815686 0.329412
0.870588 0.815686 0.337255
0.039216 0.062745 0.164706
0.054902 0.074510 0.192157
0.219608 0.101961 0.211765
0.443137 0.149020 0.176471
0.650980 0.184314 0.160784
0.784314 0.223529 0.160784
0.886275 0.239216 0.164706
0.941176 0.258824 0.164706
0.941176 0.282353 0.180392
0.050980 0.082353 0.172549
0.066667 0.098039 0.188235
0.207843 0.105882 0.203922
0.447059 0.145098 0.176471
0.635294 0.188235 0.184314
0.788235 0.223529 0.180392
0.882353 0.243137 0.168627
0.945098 0.270588 0.176471
0.941176 0.290196 0.188235
0.066667 0.184314 0.184314
0.082353 0.215686 0.211765
0.188235 0.203922 0.215686
0.380392 0.227451 0.200000
0.580392 0.262745 0.188235
0.741176 0.286275 0.188235
0.850980 0.309804 0.196078
0.917647 0.337255 0.196078
0.921569 0.352941 0.180392
0.109804 0.345098 0.247059
0.113725 0.360784 0.247059
0.215686 0.349020 0.250980
0.325490 0.317647 0.219608
0.525490 0.349020 0.219608
0.694118 0.392157 0.227451
0.815686 0.415686 0.223529
0.894118 0.439216 0.215686
0.917647 0.450980 0.223529
0.152941 0.498039 0.270588
0.152941 0.501961 0.282353
0.227451 0.498039 0.286275
0.333333 0.458824 0.262745
0.486275 0.447059 0.239216
0.639216 0.474510 0.247059
0.772549 0.505882 0.250980
0.874510 0.533333 0.254902
0.901961 0.545098 0.258824
0.196078 0.639216 0.325490
0.192157 0.643137 0.337255
0.250980 0.631373 0.313725
0.364706 0.603922 0.298039
0.490196 0.556863 0.278431
0.611765 0.549020 0.247059
0.756863 0.592157 0.270588
0.843137 0.623529 0.282353
0.890196 0.639216 0.286275
0.227451 0.745098 0.349020
0.227451 0.745098 0.349020
0.278431 0.745098 0.352941
0.380392 0.709804 0.325490
0.513725 0.670588 0.294118
0.619608 0.639216 0.270588
0.729412 0.650980 0.270588
0.831373 0.682353 0.294118
0.874510 0.698039 0.301961
0.270588 0.847059 0.396078
0.270588 0.847059 0.388235
0.313725 0.835294 0.376471
0.415686 0.819608 0.356863
0.541176 0.776471 0.329412
0.643137 0.752941 0.309804
0.729412 0.729412 0.290196
0.815686 0.737255 0.294118
0.870588 0.752941 0.305882
0.298039 0.882353 0.419608
0.298039 0.874510 0.427451
0.321569 0.866667 0.415686
0.427451 0.827451 0.396078
0.560784 0.807843 0.360784
0.690196 0.776471 0.352941
0.768627 0.752941 0.333333
0.831373 0.749020 0.337255
0.866667 0.745098 0.329412
0.058824 0.152941 0.301961
0.070588 0.152941 0.329412
0.176471 0.184314 0.384314
0.407843 0.196078 0.388235
0.631373 0.219608 0.337255
0.788235 0.258824 0.282353
0.901961 0.278431 0.266667
0.949020 0.290196 0.254902
0.960784 0.290196 0.262745
0.054902 0.117647 0.321569
0.062745 0.121569 0.345098
0.164706 0.141176 0.384314
0.423529 0.168627 0.396078
0.662745 0.211765 0.333333
0.811765 0.243137 0.294118
0.901961 0.274510 0.282353
0.952941 0.290196 0.270588
0.960784 0.301961 0.258824
0.078431 0.207843 0.337255
0.105882 0.243137 0.360784
0.184314 0.235294 0.360784
0.392157 0.243137 0.388235
0.635294 0.254902 0.329412
0.784314 0.290196 0.301961
0.882353 0.321569 0.305882
0.929412 0.349020 0.294118
0.933333 0.356863 0.278431
0.094118 0.352941 0.337255
0.117647 0.388235 0.376471
0.207843 0.380392 0.384314
0.341176 0.345098 0.364706
0.545098 0.376471 0.352941
0.709804 0.407843 0.345098
0.823529 0.423529 0.333333
0.898039 0.435294 0.317647
0.921569 0.462745 0.325490
0.156863 0.521569 0.407843
0.164706 0.545098 0.415686
0.235294 0.529412 0.411765
0.349020 0.486275 0.400000
0.498039 0.466667 0.384314
0.658824 0.505882 0.384314
0.792157 0.533333 0.396078
0.878431 0.556863 0.368627
0.913725 0.580392 0.368627
0.196078 0.682353 0.447059
0.200000 0.678431 0.447059
0.262745 0.666667 0.450980
0.360784 0.623529 0.423529
0.501961 0.584314 0.415686
0.631373 0.580392 0.403922
0.745098 0.615686 0.407843
0.843137 0.647059 0.415686
0.898039 0.666667 0.407843
0.231373 0.760784 0.490196
0.235294 0.764706 0.501961
0.290196 0.760784 0.482353
0.392157 0.725490 0.462745
0.517647 0.694118 0.423529
0.631373 0.654902 0.403922
0.725490 0.666667 0.411765
0.823529 0.701961 0.439216
0.882353 0.729412 0.435294
0.274510 0.858824 0.529412
0.274510 0.854902 0.517647
0.325490 0.850980 0.509804
0.419608 0.819608 0.482353
0.556863 0.788235 0.466667
0.670588 0.760784 0.439216
0.737255 0.741176 0.435294
0.819608 0.752941 0.439216
0.878431 0.784314 0.447059
0.329412 0.929412 0.572549
0.329412 0.933333 0.564706
0.376471 0.921569 0.556863
0.466667 0.901961 0.533333
0.596078 0.866667 0.509804
0.698039 0.850980 0.494118
0.768627 0.831373 0.486275
0.811765 0.819608 0.494118
0.866667 0.823529 0.509804
0.078431 0.156863 0.498039
0.082353 0.160784 0.501961
0.164706 0.184314 0.552941
0.356863 0.211765 0.584314
0.607843 0.235294 0.552941
0.792157 0.274510 0.501961
0.905882 0.290196 0.458824
0.960784 0.305882 0.407843
0.952941 0.313725 0.388235
0.082353 0.164706 0.513725
0.086275 0.172549 0.505882
0.168627 0.188235 0.545098
0.345098 0.215686 0.572549
0.615686 0.235294 0.552941
0.792157 0.274510 0.509804
0.898039 0.301961 0.454902
0.960784 0.305882 0.415686
0.956863 0.317647 0.400000
0.105882 0.258824 0.521569
0.121569 0.301961 0.545098
0.200000 0.282353 0.545098
0.325490 0.278431 0.560784
0.592157 0.282353 0.541176
0.776471 0.298039 0.498039
0.882353 0.309804 0.462745
0.945098 0.325490 0.415686
0.952941 0.345098 0.415686
0.125490 0.403922 0.521569
0.129412 0.415686 0.541176
0.223529 0.415686 0.545098
0.333333 0.380392 0.537255
0.549020 0.372549 0.541176
0.737255 0.392157 0.486275
0.847059 0.411765 0.474510
0.901961 0.427451 0.447059
0.913725 0.454902 0.427451
0.149020 0.564706 0.549020
0.149020 0.580392 0.545098
0.258824 0.580392 0.572549
0.345098 0.529412 0.560784
0.494118 0.490196 0.521569
0.650980 0.509804 0.509804
0.772549 0.537255 0.498039
0.854902 0.552941 0.490196
0.890196 0.568627 0.482353
0.203922 0.717647 0.584314
0.200000 0.713725 0.588235
0.274510 0.705882 0.600000
0.376471 0.647059 0.572549
0.509804 0.603922 0.549020
0.611765 0.588235 0.533333
0.729412 0.619608 0.537255
0.827451 0.650980 0.537255
0.878431 0.666667 0.533333
0.247059 0.807843 0.639216
0.250980 0.796078 0.631373
0.301961 0.788235 0.643137
0.407843 0.741176 0.611765
0.529412 0.698039 0.580392
0.631373 0.674510 0.556863
0.709804 0.666667 0.541176
0.796078 0.705882 0.572549
0.858824 0.725490 0.580392
0.282353 0.878431 0.678431
0.282353 0.874510 0.666667
0.345098 0.862745 0.670588
0.435294 0.835294 0.650980
0.545098 0.796078 0.592157
0.658824 0.764706 0.588235
0.721569 0.745098 0.556863
0.784314 0.752941 0.568627
0.862745 0.776471 0.592157
0.325490 0.925490 0.705882
0.329412 0.921569 0.713725
0.360784 0.894118 0.698039
0.466667 0.874510 0.674510
0.568627 0.835294 0.635294
0.674510 0.819608 0.615686
0.749020 0.796078 0.600000
0.800000 0.784314 0.607843
0.854902 0.780392 0.611765
0.113725 0.270588 0.611765
0.117647 0.262745 0.611765
0.184314 0.278431 0.631373
0.305882 0.290196 0.658824
0.529412 0.309804 0.666667
0.729412 0.321569 0.623529
0.862745 0.349020 0.615686
0.937255 0.368627 0.584314
0.960784 0.372549 0.549020
0.098039 0.207843 0.639216
0.113725 0.203922 0.650980
0.168627 0.207843 0.650980
0.290196 0.243137 0.682353
0.529412 0.262745 0.698039
0.752941 0.282353 0.662745
0.874510 0.313725 0.623529
0.945098 0.329412 0.592157
0.968627 0.333333 0.556863
0.113725 0.294118 0.631373
0.129412 0.313725 0.674510
0.184314 0.298039 0.658824
0.309804 0.294118 0.666667
0.517647 0.298039 0.678431
0.737255 0.294118 0.654902
0.870588 0.317647 0.623529
0.945098 0.341176 0.592157
0.968627 0.345098 0.572549
0.137255 0.411765 0.647059
0.156863 0.431373 0.666667
0.207843 0.439216 0.674510
0.325490 0.403922 0.650980
0.470588 0.396078 0.654902
0.701961 0.392157 0.650980
0.835294 0.396078 0.623529
0.925490 0.400000 0.600000
0.949020 0.411765 0.576471
0.164706 0.552941 0.674510
0.168627 0.564706 0.674510
0.247059 0.564706 0.682353
0.356863 0.533333 0.662745
0.478431 0.501961 0.643137
0.647059 0.498039 0.643137
0.792157 0.505882 0.619608
0.874510 0.525490 0.596078
0.905882 0.541176 0.580392
0.180392 0.694118 0.674510
0.196078 0.709804 0.690196
0.254902 0.705882 0.686275
0.368627 0.654902 0.678431
0.490196 0.600000 0.647059
0.623529 0.603922 0.627451
0.749020 0.631373 0.639216
0.831373 0.647059 0.623529
0.894118 0.658824 0.619608
0.211765 0.792157 0.698039
0.223529 0.803922 0.709804
0.290196 0.788235 0.721569
0.388235 0.741176 0.701961
0.513725 0.698039 0.666667
0.635294 0.686275 0.650980
0.713725 0.686275 0.647059
0.815686 0.713725 0.654902
0.878431 0.741176 0.662745
0.266667 0.866667 0.756863
0.290196 0.866667 0.764706
0.325490 0.850980 0.745098
0.415686 0.815686 0.729412
0.525490 0.780392 0.701961
0.650980 0.768627 0.674510
0.725490 0.756863 0.666667
0.792157 0.764706 0.654902
0.862745 0.800000 0.670588
0.325490 0.909804 0.784314
0.341176 0.917647 0.803922
0.368627 0.913725 0.784314
0.462745 0.890196 0.768627
0.552941 0.854902 0.729412
0.678431 0.850980 0.709804
0.752941 0.831373 0.686275
0.800000 0.823529 0.682353
0.858824 0.823529 0.694118
0.160784 0.294118 0.776471
0.156863 0.290196 0.776471
0.200000 0.282353 0.772549
0.337255 0.333333 0.800000
0.517647 0.349020 0.803922
0.741176 0.356863 0.784314
0.862745 0.325490 0.741176
0.960784 0.349020 0.729412
0.968627 0.360784 0.717647
0.164706 0.313725 0.796078
0.145098 0.282353 0.776471
0.219608 0.290196 0.776471
0.329412 0.333333 0.796078
0.521569 0.333333 0.796078
0.749020 0.360784 0.788235
0.862745 0.325490 0.741176
0.945098 0.352941 0.725490
0.960784 0.352941 0.713725
0.180392 0.411765 0.803922
0.200000 0.415686 0.807843
0.247059 0.392157 0.807843
0.337255 0.352941 0.772549
0.521569 0.352941 0.772549
0.733333 0.352941 0.764706
0.862745 0.345098 0.745098
0.945098 0.352941 0.733333
0.976471 0.356863 0.721569
0.219608 0.533333 0.811765
0.235294 0.545098 0.807843
0.286275 0.541176 0.807843
0.349020 0.462745 0.760784
0.494118 0.450980 0.756863
0.674510 0.431373 0.756863
0.823529 0.419608 0.745098
0.925490 0.419608 0.733333
0.956863 0.403922 0.709804
0.258824 0.666667 0.819608
0.250980 0.674510 0.823529
0.333333 0.658824 0.815686
0.400000 0.615686 0.776471
0.494118 0.556863 0.756863
0.635294 0.541176 0.729412
0.772549 0.537255 0.741176
0.878431 0.525490 0.725490
0.925490 0.525490 0.709804
0.278431 0.800000 0.827451
0.294118 0.807843 0.847059
0.349020 0.772549 0.823529
0.423529 0.721569 0.784314
0.525490 0.643137 0.752941
0.639216 0.643137 0.725490
0.745098 0.635294 0.721569
0.843137 0.635294 0.713725
0.905882 0.643137 0.709804
0.325490 0.854902 0.866667
0.317647 0.862745 0.850980
0.364706 0.843137 0.854902
0.435294 0.784314 0.807843
0.537255 0.725490 0.764706
0.650980 0.709804 0.737255
0.737255 0.717647 0.741176
0.839216 0.745098 0.737255
0.913725 0.768627 0.737255
0.372549 0.909804 0.878431
0.360784 0.909804 0.874510
0.415686 0.886275 0.882353
0.478431 0.854902 0.839216
0.568627 0.811765 0.800000
0.674510 0.792157 0.760784
0.752941 0.807843 0.756863
0.819608 0.803922 0.760784
0.890196 0.827451 0.768627
0.450980 0.949020 0.913725
0.427451 0.941176 0.917647
0.450980 0.937255 0.898039
0.505882 0.917647 0.862745
0.596078 0.882353 0.815686
0.701961 0.866667 0.788235
0.784314 0.878431 0.784314
0.843137 0.862745 0.776471
0.882353 0.854902 0.780392
0.254902 0.450980 0.894118
0.266667 0.454902 0.890196
0.309804 0.443137 0.874510
0.384314 0.435294 0.874510
0.525490 0.450980 0.874510
0.686275 0.447059 0.854902
0.843137 0.443137 0.843137
0.941176 0.427451 0.827451
0.968627 0.427451 0.803922
0.266667 0.454902 0.890196
0.270588 0.450980 0.890196
0.305882 0.435294 0.878431
0.392157 0.439216 0.878431
0.521569 0.447059 0.866667
0.705882 0.443137 0.854902
0.854902 0.439216 0.835294
0.941176 0.427451 0.827451
0.976471 0.427451 0.807843
0.270588 0.525490 0.886275
0.290196 0.517647 0.909804
0.313725 0.482353 0.890196
0.396078 0.466667 0.858824
0.521569 0.450980 0.850980
0.686275 0.447059 0.850980
0.839216 0.443137 0.843137
0.933333 0.427451 0.819608
0.968627 0.423529 0.811765
0.301961 0.643137 0.905882
0.317647 0.643137 0.909804
0.356863 0.627451 0.898039
0.423529 0.572549 0.866667
0.541176 0.529412 0.831373
0.666667 0.521569 0.827451
0.807843 0.494118 0.827451
0.909804 0.478431 0.819608
0.956863 0.450980 0.803922
0.345098 0.768627 0.917647
0.345098 0.760784 0.913725
0.384314 0.725490 0.894118
0.462745 0.682353 0.866667
0.533333 0.623529 0.827451
0.643137 0.607843 0.823529
0.760784 0.584314 0.815686
0.882353 0.564706 0.823529
0.929412 0.552941 0.803922
0.372549 0.843137 0.909804
0.376471 0.847059 0.913725
0.419608 0.823529 0.890196
0.482353 0.772549 0.870588
0.568627 0.721569 0.843137
0.654902 0.698039 0.815686
0.745098 0.686275 0.815686
0.831373 0.670588 0.803922
0.890196 0.647059 0.800000
0.388235 0.890196 0.901961
0.392157 0.898039 0.917647
0.427451 0.866667 0.909804
0.494118 0.823529 0.866667
0.572549 0.772549 0.839216
0.674510 0.749020 0.807843
0.752941 0.760784 0.811765
0.823529 0.752941 0.807843
0.890196 0.745098 0.811765
0.411765 0.921569 0.929412
0.407843 0.933333 0.937255
0.427451 0.913725 0.921569
0.498039 0.870588 0.878431
0.572549 0.827451 0.843137
0.670588 0.807843 0.823529
0.749020 0.803922 0.807843
0.823529 0.823529 0.823529
0.890196 0.831373 0.819608
0.435294 0.925490 0.909804
0.439216 0.929412 0.913725
0.458824 0.913725 0.909804
0.505882 0.894118 0.882353
0.596078 0.847059 0.843137
0.674510 0.843137 0.815686
0.752941 0.835294 0.807843
0.803922 0.843137 0.800000
0.850980 0.839216 0.803922
0.345098 0.564706 0.937255
0.341176 0.572549 0.941176
0.372549 0.564706 0.929412
0.450980 0.545098 0.921569
0.552941 0.529412 0.905882
0.701961 0.521569 0.905882
0.839216 0.517647 0.901961
0.941176 0.529412 0.894118
0.972549 0.521569 0.894118
0.345098 0.556863 0.941176
0.349020 0.556863 0.956863
0.380392 0.552941 0.941176
0.466667 0.545098 0.933333
0.556863 0.525490 0.921569
0.694118 0.521569 0.905882
0.835294 0.521569 0.901961
0.952941 0.533333 0.909804
0.968627 0.525490 0.886275
0.364706 0.596078 0.949020
0.372549 0.596078 0.949020
0.380392 0.580392 0.941176
0.466667 0.564706 0.925490
0.568627 0.549020 0.917647
0.705882 0.525490 0.913725
0.831373 0.525490 0.913725
0.949020 0.537255 0.901961
0.972549 0.525490 0.901961
0.407843 0.686275 0.945098
0.396078 0.690196 0.952941
0.423529 0.678431 0.945098
0.478431 0.627451 0.913725
0.568627 0.615686 0.905882
0.678431 0.584314 0.890196
0.811765 0.560784 0.898039
0.929412 0.552941 0.905882
0.964706 0.537255 0.894118
0.431373 0.772549 0.941176
0.411765 0.800000 0.952941
0.458824 0.768627 0.937255
0.525490 0.729412 0.917647
0.588235 0.690196 0.890196
0.682353 0.682353 0.886275
0.776471 0.662745 0.882353
0.882353 0.639216 0.886275
0.929412 0.627451 0.894118
0.454902 0.854902 0.941176
0.435294 0.862745 0.945098
0.486275 0.847059 0.937255
0.545098 0.807843 0.921569
0.619608 0.772549 0.901961
0.709804 0.760784 0.886275
0.776471 0.752941 0.886275
0.843137 0.721569 0.882353
0.901961 0.717647 0.890196
0.486275 0.886275 0.941176
0.462745 0.901961 0.949020
0.486275 0.882353 0.929412
0.560784 0.847059 0.913725
0.631373 0.815686 0.894118
0.717647 0.819608 0.886275
0.784314 0.819608 0.886275
0.839216 0.807843 0.898039
0.898039 0.803922 0.898039
0.482353 0.921569 0.937255
0.450980 0.937255 0.937255
0.478431 0.913725 0.941176
0.549020 0.882353 0.909804
0.627451 0.854902 0.898039
0.733333 0.850980 0.890196
0.796078 0.850980 0.886275
0.862745 0.866667 0.886275
0.905882 0.862745 0.894118
0.486275 0.929412 0.945098
0.462745 0.941176 0.945098
0.470588 0.941176 0.945098
0.541176 0.913725 0.921569
0.615686 0.894118 0.901961
0.721569 0.882353 0.890196
0.800000 0.882353 0.886275
0.858824 0.905882 0.890196
0.905882 0.913725 0.894118
