Examples/DCRDemo/DCRDemo/Resources/LUTs/jade.cube
#Generated by Presets Store
#https://presetsstore.com
TITLE "Jade CCD"
LUT_3D_SIZE 5
0.047059 0.062745 0.066667
0.250980 0.105882 0.082353
0.611765 0.180392 0.113725
0.878431 0.243137 0.145098
0.898039 0.254902 0.149020
0.062745 0.152941 0.074510
0.152941 0.141176 0.074510
0.541176 0.223529 0.105882
0.850980 0.305882 0.137255
0.890196 0.333333 0.145098
0.145098 0.454902 0.196078
0.203922 0.435294 0.168627
0.478431 0.411765 0.137255
0.792157 0.490196 0.176471
0.886275 0.537255 0.207843
0.219608 0.713725 0.290196
0.270588 0.709804 0.278431
0.501961 0.654902 0.227451
0.737255 0.643137 0.211765
0.874510 0.705882 0.262745
0.298039 0.917647 0.372549
0.325490 0.913725 0.388235
0.568627 0.866667 0.341176
0.768627 0.827451 0.321569
0.858824 0.827451 0.341176
0.039216 0.062745 0.164706
0.219608 0.101961 0.211765
0.650980 0.184314 0.160784
0.886275 0.239216 0.164706
0.941176 0.282353 0.180392
0.066667 0.184314 0.184314
0.188235 0.203922 0.215686
0.580392 0.262745 0.188235
0.850980 0.309804 0.196078
0.921569 0.352941 0.180392
0.152941 0.498039 0.270588
0.227451 0.498039 0.286275
0.486275 0.447059 0.239216
0.772549 0.505882 0.250980
0.901961 0.545098 0.258824
0.227451 0.745098 0.349020
0.278431 0.745098 0.352941
0.513725 0.670588 0.294118
0.729412 0.650980 0.270588
0.874510 0.698039 0.301961
0.298039 0.882353 0.419608
0.321569 0.866667 0.415686
0.560784 0.807843 0.360784
0.768627 0.752941 0.333333
0.866667 0.745098 0.329412
0.078431 0.156863 0.498039
0.164706 0.184314 0.552941
0.607843 0.235294 0.552941
0.905882 0.290196 0.458824
0.952941 0.313725 0.388235
0.105882 0.258824 0.521569
0.200000 0.282353 0.545098
0.592157 0.282353 0.541176
0.882353 0.309804 0.462745
0.952941 0.345098 0.415686
0.149020 0.564706 0.549020
0.258824 0.580392 0.572549
0.494118 0.490196 0.521569
0.772549 0.537255 0.498039
0.890196 0.568627 0.482353
0.247059 0.807843 0.639216
0.301961 0.788235 0.643137
0.529412 0.698039 0.580392
0.709804 0.666667 0.541176
0.858824 0.725490 0.580392
0.325490 0.925490 0.705882
0.360784 0.894118 0.698039
0.568627 0.835294 0.635294
0.749020 0.796078 0.600000
0.854902 0.780392 0.611765
0.160784 0.294118 0.776471
0.200000 0.282353 0.772549
0.517647 0.349020 0.803922
0.862745 0.325490 0.741176
0.968627 0.360784 0.717647
0.180392 0.411765 0.803922
0.247059 0.392157 0.807843
0.521569 0.352941 0.772549
0.862745 0.345098 0.745098
0.976471 0.356863 0.721569
0.258824 0.666667 0.819608
0.333333 0.658824 0.815686
0.494118 0.556863 0.756863
0.772549 0.537255 0.741176
0.925490 0.525490 0.709804
0.325490 0.854902 0.866667
0.364706 0.843137 0.854902
0.537255 0.725490 0.764706
0.737255 0.717647 0.741176
0.913725 0.768627 0.737255
0.450980 0.949020 0.913725
0.450980 0.937255 0.898039
0.596078 0.882353 0.815686
0.784314 0.878431 0.784314
0.882353 0.854902 0.780392
0.345098 0.564706 0.937255
0.372549 0.564706 0.929412
0.552941 0.529412 0.905882
0.839216 0.517647 0.901961
0.972549 0.521569 0.894118
0.364706 0.596078 0.949020
0.380392 0.580392 0.941176
0.568627 0.549020 0.917647
0.831373 0.525490 0.913725
0.972549 0.525490 0.901961
0.431373 0.772549 0.941176
0.458824 0.768627 0.937255
0.588235 0.690196 0.890196
0.776471 0.662745 0.882353
0.929412 0.627451 0.894118
0.486275 0.886275 0.941176
0.486275 0.882353 0.929412
0.631373 0.815686 0.894118
0.784314 0.819608 0.886275
0.898039 0.803922 0.898039
0.486275 0.929412 0.945098
0.470588 0.941176 0.945098
0.615686 0.894118 0.901961
0.800000 0.882353 0.886275
0.905882 0.913725 0.894118
